; generated by PrusaSlicer 2.5.0+win64 on 2022-12-21 at 22:34:55 UTC

; 

; external perimeters extrusion width = 0.45mm
; perimeters extrusion width = 0.45mm
; infill extrusion width = 0.45mm
; solid infill extrusion width = 0.45mm
; top infill extrusion width = 0.40mm
; first layer extrusion width = 0.42mm

M107
M190 S110 ; set bed temperature and wait for it to be reached
M104 S230 ; set temperature
;TYPE:Custom
G28 ; home all axes
G1 Z5 F5000 ; lift nozzle
M109 S230 ; set temperature and wait for it to be reached
G21 ; set units to millimeters
G90 ; use absolute coordinates
M82 ; use absolute distances for extrusion
G92 E0
; Filament gcode
M107
;LAYER_CHANGE
;Z:0.2
;HEIGHT:0.2
G1 Z.2 F7800
G1 E-2 F2400
G92 E0
G1 X65.493 Y37.962 F7800
G1 E2 F2400
;TYPE:Skirt/Brim
;WIDTH:0.42
G1 F1800
G1 X66.271 Y36.763 E2.04479
G1 X67.438 Y35.309 E2.10325
G1 X68.644 Y34.103 E2.15676
G1 X69.747 Y33.194 E2.20155
G1 X70.924 Y32.384 E2.24634
G1 X72.167 Y31.68 E2.29114
G1 X73.454 Y31.093 E2.33549
G1 X74.813 Y30.611 E2.38073
G1 X76.196 Y30.253 E2.42552
G1 X77.606 Y30.016 E2.47031
G1 X79.03 Y29.904 E2.5151
G1 X220.534 Y29.894 E6.95188
G1 X221.961 Y29.969 E6.99667
G1 X223.798 Y30.251 E7.05496
G1 X225.181 Y30.609 E7.09975
G1 X226.533 Y31.088 E7.14472
G1 X228.08 Y31.809 E7.19822
G1 X229.311 Y32.534 E7.24302
G1 X230.474 Y33.363 E7.28782
G1 X231.561 Y34.291 E7.33261
G1 X232.562 Y35.309 E7.3774
G1 X233.471 Y36.412 E7.42219
G1 X234.281 Y37.589 E7.46699
G1 X235.177 Y39.223 E7.52544
G1 X235.735 Y40.539 E7.57024
G1 X236.177 Y41.897 E7.61503
G1 X236.546 Y43.563 E7.66854
G1 X236.719 Y44.967 E7.71289
G1 X236.772 Y46.27 E7.75377
G1 X236.749 Y154.583 E11.14985
G1 X236.547 Y156.428 E11.20804
G1 X236.249 Y157.834 E11.2531
G1 X235.735 Y159.461 E11.30661
G1 X235.177 Y160.777 E11.35141
G1 X234.281 Y162.411 E11.40986
G1 X233.471 Y163.588 E11.45466
G1 X232.562 Y164.691 E11.49945
G1 X231.366 Y165.888 E11.55252
G1 X230.253 Y166.806 E11.59776
G1 X229.088 Y167.608 E11.6421
G1 X227.833 Y168.32 E11.68734
G1 X226.533 Y168.912 E11.73213
G1 X225.2 Y169.385 E11.77648
G1 X223.817 Y169.744 E11.82128
G1 X222.409 Y169.982 E11.86607
G1 X220.97 Y170.096 E11.91131
G1 X79.605 Y170.107 E16.34372
G1 X78.039 Y170.031 E16.39287
G1 X76.202 Y169.749 E16.45116
G1 X74.548 Y169.306 E16.50483
G1 X72.811 Y168.63 E16.56329
G1 X71.297 Y167.842 E16.6168
G1 X69.747 Y166.806 E16.67526
G1 X68.644 Y165.897 E16.72005
G1 X67.438 Y164.691 E16.77356
G1 X66.529 Y163.588 E16.81835
G1 X65.727 Y162.423 E16.8627
G1 X65.015 Y161.168 E16.90794
G1 X64.423 Y159.868 E16.95274
G1 X63.95 Y158.535 E16.99708
G1 X63.591 Y157.152 E17.04187
G1 X63.353 Y155.744 E17.08666
G1 X63.239 Y154.305 E17.13191
G1 X63.228 Y46.27 E20.51928
G1 X63.304 Y44.704 E20.56843
G1 X63.586 Y42.867 E20.62672
G1 X64.029 Y41.213 E20.6804
G1 X64.705 Y39.475 E20.73885
G1 X65.465 Y38.015 E20.79048
G1 E18.79048 F2400
G92 E0
G1 X71.79 Y41.737 F7800
G1 E2 F2400
;TYPE:Perimeter
;WIDTH:0.419999
G1 F1800
G1 X72.204 Y41.088 E2.02413
G1 X72.684 Y40.463 E2.04883
G1 X73.216 Y39.881 E2.07356
G1 X73.797 Y39.349 E2.09827
G1 X74.423 Y38.869 E2.12298
G1 X75.088 Y38.446 E2.1477
G1 X75.787 Y38.082 E2.17241
G1 X76.515 Y37.78 E2.19712
G1 X77.267 Y37.543 E2.22184
G1 X78.036 Y37.372 E2.24655
G1 X78.818 Y37.269 E2.27126
G1 X79.626 Y37.234 E2.29663
G1 X220.383 Y37.234 E6.70995
G1 X221.172 Y37.269 E6.73473
G1 X222.36 Y37.452 E6.77243
G1 X223.112 Y37.653 E6.79682
G1 X223.853 Y37.923 E6.82153
G1 X224.558 Y38.252 E6.84593
G1 X225.579 Y38.871 E6.88336
G1 X226.203 Y39.349 E6.90802
G1 X226.784 Y39.881 E6.93272
G1 X227.316 Y40.462 E6.95744
G1 X227.796 Y41.088 E6.98215
G1 X228.219 Y41.752 E7.00685
G1 X228.587 Y42.459 E7.03184
G1 X228.881 Y43.17 E7.05597
G1 X229.218 Y44.325 E7.09366
G1 X229.353 Y45.091 E7.11805
G1 X229.421 Y45.876 E7.14277
G1 X229.421 Y154.114 E10.5365
G1 X229.292 Y155.301 E10.57392
G1 X229.122 Y156.069 E10.59858
G1 X228.885 Y156.82 E10.62328
G1 X228.583 Y157.548 E10.648
G1 X228.224 Y158.239 E10.67239
G1 X227.562 Y159.23 E10.70977
G1 X226.776 Y160.126 E10.74714
G1 X226.203 Y160.651 E10.77153
G1 X225.577 Y161.131 E10.79624
G1 X224.912 Y161.554 E10.82095
G1 X224.213 Y161.918 E10.84567
G1 X223.485 Y162.22 E10.87038
G1 X222.733 Y162.457 E10.89509
G1 X221.964 Y162.628 E10.91981
G1 X221.182 Y162.731 E10.94452
G1 X220.374 Y162.766 E10.96989
G1 X79.626 Y162.766 E15.38293
G1 X78.809 Y162.73 E15.40857
G1 X78.036 Y162.628 E15.43303
G1 X77.267 Y162.457 E15.45773
G1 X76.515 Y162.22 E15.48245
G1 X75.787 Y161.918 E15.50716
G1 X75.096 Y161.559 E15.53156
G1 X74.097 Y160.891 E15.56925
G1 X73.509 Y160.398 E15.59333
G1 X72.678 Y159.529 E15.63102
G1 X72.204 Y158.912 E15.65541
G1 X71.781 Y158.247 E15.68012
G1 X71.417 Y157.548 E15.70483
G1 X71.115 Y156.82 E15.72955
G1 X70.878 Y156.068 E15.75426
G1 X70.707 Y155.299 E15.77897
G1 X70.604 Y154.517 E15.80369
G1 X70.569 Y153.709 E15.82906
G1 X70.569 Y46.291 E19.19706
G1 X70.605 Y45.474 E19.2227
G1 X70.706 Y44.711 E19.24683
G1 X70.992 Y43.543 E19.28453
G1 X71.254 Y42.822 E19.30859
G1 X71.764 Y41.791 E19.34467
G1 X71.461 Y41.551 F7800
G1 F1800
G1 X71.895 Y40.871 E19.36996
G1 X72.395 Y40.22 E19.3957
G1 X72.949 Y39.614 E19.42145
G1 X73.555 Y39.06 E19.4472
G1 X74.206 Y38.56 E19.47294
G1 X74.899 Y38.119 E19.49869
G1 X75.627 Y37.74 E19.52443
G1 X76.386 Y37.425 E19.55018
G1 X77.169 Y37.178 E19.57592
G1 X77.971 Y37.001 E19.60167
G1 X78.785 Y36.893 E19.62742
G1 X79.618 Y36.857 E19.65356
G1 X220.391 Y36.857 E24.0674
G1 X221.209 Y36.893 E24.09308
G1 X222.438 Y37.082 E24.13207
G1 X223.225 Y37.293 E24.15762
G1 X223.997 Y37.574 E24.18336
G1 X224.736 Y37.919 E24.20892
G1 X225.792 Y38.559 E24.24764
G1 X226.445 Y39.06 E24.27346
G1 X227.051 Y39.614 E24.2992
G1 X227.605 Y40.22 E24.32495
G1 X228.105 Y40.871 E24.35069
G1 X228.546 Y41.564 E24.37643
G1 X228.929 Y42.3 E24.40245
G1 X229.237 Y43.045 E24.42774
G1 X229.585 Y44.239 E24.46672
G1 X229.727 Y45.041 E24.49228
G1 X229.798 Y45.859 E24.51802
G1 X229.798 Y154.135 E27.91291
G1 X229.664 Y155.362 E27.95163
G1 X229.487 Y156.166 E27.97745
G1 X229.24 Y156.949 E28.00319
G1 X228.926 Y157.708 E28.02893
G1 X228.549 Y158.431 E28.05449
G1 X227.862 Y159.46 E28.09329
G1 X227.046 Y160.39 E28.13207
G1 X226.445 Y160.94 E28.15763
G1 X225.794 Y161.44 E28.18337
G1 X225.101 Y161.881 E28.20912
G1 X224.373 Y162.26 E28.23486
G1 X223.614 Y162.575 E28.26061
G1 X222.831 Y162.822 E28.28635
G1 X222.029 Y162.999 E28.3121
G1 X221.215 Y163.107 E28.33785
G1 X220.382 Y163.143 E28.36399
G1 X79.618 Y163.143 E32.77755
G1 X78.776 Y163.106 E32.80397
G1 X77.97 Y162.999 E32.82945
G1 X77.169 Y162.822 E32.85519
G1 X76.386 Y162.575 E32.88094
G1 X75.627 Y162.26 E32.90668
G1 X74.904 Y161.884 E32.93224
G1 X73.87 Y161.193 E32.97122
G1 X73.251 Y160.673 E32.99659
G1 X72.391 Y159.775 E33.03557
G1 X71.895 Y159.129 E33.06112
G1 X71.454 Y158.436 E33.08687
G1 X71.075 Y157.708 E33.11261
G1 X70.76 Y156.949 E33.13836
G1 X70.513 Y156.166 E33.16411
G1 X70.336 Y155.364 E33.18985
G1 X70.228 Y154.55 E33.2156
G1 X70.192 Y153.717 E33.24174
G1 X70.192 Y46.283 E36.61026
G1 X70.229 Y45.441 E36.63668
G1 X70.335 Y44.642 E36.66197
G1 X70.63 Y43.434 E36.70096
G1 X70.907 Y42.674 E36.72632
G1 X71.435 Y41.605 E36.76369
G1 X71.132 Y41.366 F7800
;TYPE:External perimeter
G1 F1800
G1 X71.586 Y40.655 E36.79014
G1 X72.105 Y39.977 E36.8169
G1 X72.683 Y39.348 E36.84369
G1 X73.312 Y38.771 E36.87046
G1 X73.99 Y38.251 E36.89724
G1 X74.71 Y37.792 E36.92402
G1 X75.468 Y37.397 E36.9508
G1 X76.257 Y37.071 E36.97758
G1 X77.071 Y36.814 E37.00435
G1 X77.905 Y36.629 E37.03113
G1 X78.752 Y36.517 E37.05791
G1 X79.61 Y36.48 E37.08483
G1 X220.399 Y36.48 E41.49918
G1 X221.246 Y36.517 E41.52577
G1 X222.516 Y36.713 E41.56605
G1 X223.339 Y36.933 E41.59276
G1 X224.141 Y37.225 E41.61954
G1 X224.914 Y37.586 E41.64626
G1 X226.005 Y38.247 E41.68626
G1 X226.688 Y38.771 E41.71325
G1 X227.317 Y39.348 E41.74002
G1 X227.894 Y39.977 E41.7668
G1 X228.414 Y40.655 E41.79358
G1 X228.873 Y41.375 E41.82036
G1 X229.271 Y42.141 E41.8474
G1 X229.594 Y42.92 E41.87386
G1 X229.953 Y44.153 E41.91413
G1 X230.101 Y44.992 E41.94084
G1 X230.175 Y45.843 E41.96762
G1 X230.175 Y154.155 E45.36367
G1 X230.037 Y155.423 E45.40367
G1 X229.851 Y156.264 E45.43065
G1 X229.594 Y157.078 E45.45743
G1 X229.268 Y157.867 E45.48421
G1 X228.874 Y158.623 E45.51093
G1 X228.161 Y159.69 E45.55115
G1 X227.316 Y160.654 E45.59135
G1 X226.688 Y161.229 E45.61807
G1 X226.01 Y161.749 E45.64484
G1 X225.29 Y162.208 E45.67162
G1 X224.532 Y162.603 E45.6984
G1 X223.743 Y162.929 E45.72518
G1 X222.929 Y163.186 E45.75196
G1 X222.095 Y163.371 E45.77873
G1 X221.248 Y163.483 E45.80551
G1 X220.39 Y163.52 E45.83243
G1 X79.61 Y163.52 E50.24651
G1 X78.743 Y163.482 E50.2737
G1 X77.905 Y163.371 E50.30022
G1 X77.071 Y163.186 E50.32698
G1 X76.257 Y162.929 E50.35377
G1 X75.468 Y162.603 E50.38055
G1 X74.712 Y162.209 E50.40727
G1 X73.644 Y161.495 E50.44754
G1 X72.993 Y160.949 E50.47419
G1 X72.104 Y160.021 E50.51447
G1 X71.586 Y159.345 E50.54118
G1 X71.127 Y158.625 E50.56796
G1 X70.732 Y157.867 E50.59474
G1 X70.406 Y157.078 E50.62152
G1 X70.149 Y156.264 E50.64829
G1 X69.964 Y155.43 E50.67507
G1 X69.852 Y154.583 E50.70185
G1 X69.815 Y153.725 E50.72877
G1 X69.815 Y46.275 E54.09781
G1 X69.853 Y45.408 E54.125
G1 X69.964 Y44.572 E54.15145
G1 X70.269 Y43.324 E54.19173
G1 X70.56 Y42.525 E54.21838
G1 X71.106 Y41.42 E54.25704
G1 X71.532 Y41.363 F7800
G1 E52.25704 F2400
G92 E0
G1 X78.348 Y156.375 F7800
G1 E2 F2400
;TYPE:Perimeter
G1 F1800
G1 X78.473 Y156.74 E2.0121
G1 X78.511 Y157.005 E2.0205
G1 X78.511 Y157.525 E2.03679
G1 X78.473 Y157.791 E2.04521
G1 X78.264 Y158.368 E2.06446
G1 X77.983 Y158.804 E2.08073
G1 X77.737 Y159.063 E2.09194
G1 X77.319 Y159.384 E2.10845
G1 X76.798 Y159.616 E2.12633
G1 X76.248 Y159.72 E2.1439
G1 X75.756 Y159.687 E2.15936
G1 X75.219 Y159.575 E2.17656
G1 X74.708 Y159.315 E2.19453
G1 X74.279 Y158.953 E2.21211
G1 X73.985 Y158.579 E2.22704
G1 X73.752 Y158.055 E2.24502
G1 X73.641 Y157.633 E2.25871
G1 X73.611 Y157.158 E2.27363
G1 X73.673 Y156.69 E2.28843
G1 X73.921 Y156.077 E2.30916
G1 X74.167 Y155.727 E2.32258
G1 X74.498 Y155.37 E2.33785
G1 X74.951 Y155.074 E2.35479
G1 X75.475 Y154.878 E2.37236
G1 X76.033 Y154.805 E2.38999
G1 X76.59 Y154.861 E2.40756
G1 X77.067 Y155.02 E2.42331
G1 X77.598 Y155.337 E2.44271
G1 X77.995 Y155.734 E2.46029
G1 X78.292 Y156.21 E2.47788
G1 X78.329 Y156.318 E2.48147
G1 X77.982 Y156.454 F7800
G1 F1800
G1 X78.014 Y156.514 E2.4836
G1 X78.134 Y157.005 E2.49946
G1 X78.134 Y157.525 E2.51575
G1 X78.014 Y158.017 E2.53165
G1 X77.666 Y158.6 E2.55293
G1 X77.507 Y158.765 E2.56011
G1 X77.103 Y159.075 E2.57606
G1 X76.584 Y159.288 E2.59366
G1 X76.033 Y159.346 E2.61104
G1 X75.519 Y159.273 E2.62733
G1 X75.049 Y159.083 E2.64322
G1 X74.6 Y158.748 E2.66077
G1 X74.269 Y158.309 E2.67802
G1 X74.066 Y157.831 E2.69431
G1 X73.986 Y157.33 E2.7102
G1 X74.039 Y156.783 E2.72744
G1 X74.268 Y156.223 E2.74639
G1 X74.445 Y155.982 E2.75578
G1 X74.848 Y155.576 E2.77371
G1 X75.263 Y155.343 E2.78862
G1 X75.718 Y155.211 E2.8035
G1 X76.194 Y155.185 E2.81843
G1 X76.662 Y155.267 E2.83332
G1 X76.985 Y155.393 E2.84419
G1 X77.428 Y155.681 E2.86075
G1 X77.793 Y156.093 E2.87803
G1 X77.954 Y156.401 E2.88892
G1 X77.652 Y156.62 F7800
;TYPE:External perimeter
G1 F1800
G1 X77.757 Y157.005 E2.90145
G1 X77.757 Y157.525 E2.91774
G1 X77.63 Y157.96 E2.93195
G1 X77.349 Y158.396 E2.94822
G1 X76.895 Y158.761 E2.96648
G1 X76.483 Y158.924 E2.98036
G1 X76.087 Y158.973 E2.99288
G1 X75.573 Y158.899 E3.00917
G1 X75.169 Y158.718 E3.02305
G1 X74.863 Y158.476 E3.03527
G1 X74.616 Y158.162 E3.04779
G1 X74.414 Y157.684 E3.06408
G1 X74.361 Y157.244 E3.07797
G1 X74.414 Y156.848 E3.09049
G1 X74.615 Y156.37 E3.10676
G1 X75.001 Y155.933 E3.12504
G1 X75.379 Y155.702 E3.13892
G1 X75.751 Y155.587 E3.15112
G1 X76.14 Y155.558 E3.16337
G1 X76.525 Y155.618 E3.17557
G1 X76.848 Y155.744 E3.18645
G1 X77.205 Y155.988 E3.2
G1 X77.465 Y156.278 E3.21222
G1 X77.623 Y156.567 E3.22256
G1 X78.047 Y156.676 F7800
G1 E1.22256 F2400
G92 E0
G1 X88.672 Y142.415 F7800
G1 E2 F2400
;TYPE:Perimeter
G1 F1800
G1 X89.003 Y142.24 E2.01174
G1 X89.269 Y142.171 E2.02036
G1 X89.771 Y142.121 E2.03617
G1 X90.082 Y142.167 E2.04602
G1 X90.576 Y142.333 E2.06236
G1 X90.827 Y142.495 E2.07173
G1 X91.142 Y142.779 E2.08505
G1 X91.363 Y143.076 E2.09665
G1 X91.571 Y143.548 E2.11281
G1 X91.644 Y144.085 E2.1298
G1 X91.61 Y144.41 E2.14005
G1 X91.46 Y144.916 E2.15661
G1 X91.309 Y145.166 E2.16576
G1 X90.949 Y145.581 E2.18299
G1 X90.727 Y145.732 E2.1914
G1 X90.276 Y145.949 E2.20711
G1 X89.966 Y146.013 E2.21702
G1 X89.461 Y146.028 E2.23285
G1 X89.156 Y145.96 E2.24267
G1 X88.657 Y145.752 E2.25961
G1 X88.361 Y145.505 E2.27171
G1 X88.008 Y145.102 E2.28849
G1 X87.807 Y144.598 E2.30551
G1 X87.73 Y144.221 E2.31757
G1 X87.772 Y143.652 E2.33546
G1 X87.87 Y143.356 E2.34524
G1 X88.142 Y142.866 E2.36283
G1 X88.536 Y142.488 E2.37994
G1 X88.619 Y142.444 E2.38289
G1 X88.856 Y142.748 F7800
G1 F1800
G1 X89.177 Y142.576 E2.39433
G1 X89.731 Y142.501 E2.41186
G1 X89.965 Y142.526 E2.41923
G1 X90.447 Y142.689 E2.43518
G1 X90.89 Y143.059 E2.45329
G1 X91.028 Y143.249 E2.46065
G1 X91.23 Y143.72 E2.47671
G1 X91.264 Y144.227 E2.49263
G1 X91.131 Y144.715 E2.50852
G1 X91.02 Y144.923 E2.51591
G1 X90.665 Y145.328 E2.53278
G1 X90.181 Y145.579 E2.54989
G1 X89.953 Y145.636 E2.55726
G1 X89.432 Y145.647 E2.57358
G1 X88.902 Y145.452 E2.5913
G1 X88.706 Y145.32 E2.5987
G1 X88.344 Y144.93 E2.61539
G1 X88.141 Y144.414 E2.63274
G1 X88.109 Y144.182 E2.64012
G1 X88.153 Y143.664 E2.65641
G1 X88.403 Y143.158 E2.67409
G1 X88.735 Y142.813 E2.68912
G1 X88.803 Y142.776 E2.69153
G1 X89.031 Y143.064 F7800
;TYPE:External perimeter
G1 F1800
G1 X89.349 Y142.921 E2.70244
G1 X89.849 Y142.885 E2.71818
G1 X90.321 Y143.054 E2.73389
G1 X90.637 Y143.34 E2.74726
G1 X90.856 Y143.791 E2.76299
G1 X90.885 Y144.202 E2.77592
G1 X90.731 Y144.681 E2.79168
G1 X90.396 Y145.054 E2.80741
G1 X89.939 Y145.259 E2.82312
G1 X89.438 Y145.261 E2.83885
G1 X88.978 Y145.058 E2.85461
G1 X88.641 Y144.685 E2.87037
G1 X88.485 Y144.208 E2.8861
G1 X88.536 Y143.71 E2.9018
G1 X88.776 Y143.283 E2.91715
G1 X88.985 Y143.103 E2.92582
G1 X89.009 Y142.716 F7800
G1 E.92582 F2400
G92 E0
G1 X89.453 Y54.31 F7800
G1 E2 F2400
;TYPE:Perimeter
G1 F1800
G1 X89.667 Y54.297 E2.00674
G1 X90.188 Y54.353 E2.02316
G1 X90.47 Y54.453 E2.03253
G1 X90.929 Y54.709 E2.04902
G1 X91.148 Y54.91 E2.05833
G1 X91.46 Y55.308 E2.07421
G1 X91.594 Y55.595 E2.08414
G1 X91.732 Y56.111 E2.10089
G1 X91.738 Y56.401 E2.10997
G1 X91.669 Y56.903 E2.12586
G1 X91.556 Y57.198 E2.13578
G1 X91.274 Y57.665 E2.15288
G1 X91.077 Y57.862 E2.16161
G1 X90.664 Y58.163 E2.17764
G1 X90.151 Y58.358 E2.19485
G1 X89.84 Y58.399 E2.20469
G1 X89.31 Y58.378 E2.22131
G1 X89.028 Y58.297 E2.23049
G1 X88.571 Y58.084 E2.24631
G1 X88.32 Y57.886 E2.25633
G1 X87.974 Y57.499 E2.27263
G1 X87.829 Y57.231 E2.28218
G1 X87.661 Y56.737 E2.29852
G1 X87.633 Y56.437 E2.30799
G1 X87.674 Y55.895 E2.32504
G1 X87.807 Y55.54 E2.33691
G1 X88.071 Y55.063 E2.354
G1 X88.537 Y54.648 E2.37358
G1 X88.866 Y54.467 E2.38534
G1 X89.393 Y54.313 E2.40254
G1 X89.42 Y54.695 F7800
G1 F1800
G1 X89.475 Y54.678 E2.40433
G1 X90.074 Y54.717 E2.42316
G1 X90.289 Y54.784 E2.43021
G1 X90.759 Y55.05 E2.44715
G1 X91.129 Y55.494 E2.46527
G1 X91.231 Y55.695 E2.47234
G1 X91.365 Y56.201 E2.48876
G1 X91.305 Y56.793 E2.50741
G1 X91.231 Y57.006 E2.51448
G1 X90.971 Y57.44 E2.53035
G1 X90.493 Y57.824 E2.54957
G1 X90.024 Y58.002 E2.5653
G1 X89.406 Y58.007 E2.58468
G1 X89.187 Y57.955 E2.59173
G1 X88.719 Y57.734 E2.60795
G1 X88.3 Y57.301 E2.62684
G1 X88.185 Y57.107 E2.63391
G1 X88.016 Y56.598 E2.65073
G1 X88.039 Y56.017 E2.66897
G1 X88.144 Y55.71 E2.67914
G1 X88.392 Y55.269 E2.69501
G1 X88.781 Y54.936 E2.71106
G1 X88.978 Y54.828 E2.71812
G1 X89.363 Y54.712 E2.73071
G1 X89.511 Y55.057 F7800
;TYPE:External perimeter
G1 F1800
G1 X90.036 Y55.092 E2.7472
G1 X90.499 Y55.329 E2.7635
G1 X90.833 Y55.728 E2.77982
G1 X90.986 Y56.226 E2.79614
G1 X90.931 Y56.743 E2.81247
G1 X90.668 Y57.215 E2.82941
G1 X90.269 Y57.52 E2.84517
G1 X89.865 Y57.646 E2.85843
G1 X89.365 Y57.621 E2.87412
G1 X88.909 Y57.407 E2.88991
G1 X88.57 Y57.037 E2.90563
G1 X88.395 Y56.562 E2.92153
