; generated by PrusaSlicer 2.5.0+win64 on 2022-12-21 at 22:32:49 UTC

; 

; external perimeters extrusion width = 0.45mm
; perimeters extrusion width = 0.45mm
; infill extrusion width = 0.45mm
; solid infill extrusion width = 0.45mm
; top infill extrusion width = 0.40mm
; first layer extrusion width = 0.42mm

M107
M190 S110 ; set bed temperature and wait for it to be reached
M104 S230 ; set temperature
;TYPE:Custom
G28 ; home all axes
G1 Z5 F5000 ; lift nozzle
M109 S230 ; set temperature and wait for it to be reached
G21 ; set units to millimeters
G90 ; use absolute coordinates
M82 ; use absolute distances for extrusion
G92 E0
; Filament gcode
M107
;LAYER_CHANGE
;Z:0.2
;HEIGHT:0.2
G1 Z.2 F7800
G1 E-2 F2400
G92 E0
G1 X67.56 Y38.8 F7800
G1 E2 F2400
;TYPE:Skirt/Brim
;WIDTH:0.42
G1 F1800
G1 X68.467 Y37.249 E2.05635
G1 X69.288 Y36.261 E2.09662
G1 X70.023 Y35.57 E2.12826
G1 X71.267 Y34.682 E2.17619
G1 X72.64 Y34.009 E2.22411
G1 X74.103 Y33.568 E2.27203
G1 X76.008 Y33.358 E2.33213
G1 X223.999 Y33.359 E6.97229
G1 X225.522 Y33.495 E7.02021
G1 X227.232 Y33.96 E7.07578
G1 X227.936 Y34.258 E7.09976
G1 X229.036 Y34.871 E7.13924
G1 X230.264 Y35.822 E7.18795
G1 X231.452 Y37.138 E7.24351
G1 X231.883 Y37.769 E7.26749
G1 X232.477 Y38.88 E7.30698
G1 X232.996 Y40.344 E7.35568
G1 X233.284 Y42.092 E7.41124
G1 X233.305 Y157.388 E11.02625
G1 X233.264 Y158.151 E11.05023
G1 X233.055 Y159.419 E11.0905
G1 X232.771 Y160.387 E11.12215
G1 X232.261 Y161.566 E11.16242
G1 X231.303 Y163.057 E11.21798
G1 X230.807 Y163.639 E11.24196
G1 X229.871 Y164.519 E11.28223
G1 X228.614 Y165.387 E11.33015
G1 X227.232 Y166.04 E11.37807
G1 X225.762 Y166.46 E11.426
G1 X224 Y166.641 E11.48155
G1 X76.008 Y166.642 E16.12172
G1 X74.882 Y166.565 E16.15712
G1 X73.88 Y166.382 E16.18904
G1 X72.663 Y166 E16.22905
G1 X71.94 Y165.682 E16.25381
G1 X70.443 Y164.765 E16.30885
G1 X69.838 Y164.27 E16.33336
G1 X68.939 Y163.353 E16.37362
G1 X67.921 Y161.902 E16.42919
G1 X67.276 Y160.517 E16.47711
G1 X66.864 Y159.045 E16.52503
G1 X66.692 Y157.266 E16.58108
G1 X66.692 Y42.734 E20.17212
G1 X66.75 Y41.711 E20.20426
G1 X66.914 Y40.716 E20.23589
G1 X67.109 Y39.976 E20.25988
G1 X67.538 Y38.856 E20.29748
G1 E18.29748 F2400
G92 E0
G1 X74.149 Y41.308 F7800
G1 E2 F2400
;TYPE:Perimeter
;WIDTH:0.391003
G1 F1800
G1 X74.342 Y41.041 E2.00953
;WIDTH:0.403627
G1 X74.728 Y40.725 E2.02449
G1 X75.173 Y40.493 E2.03955
;WIDTH:0.401182
G1 X75.613 Y40.359 E2.05324
G1 X75.943 Y40.319 E2.06314
;WIDTH:0.392145
G1 X76.487 Y40.358 E2.079
;WIDTH:0.390319
G1 X77.054 Y40.532 E2.09612
;WIDTH:0.394677
G1 X77.557 Y40.827 E2.11319
G1 X77.993 Y41.267 E2.13129
;WIDTH:0.39059
G1 X78.259 Y41.723 E2.14655
;WIDTH:0.394277
G1 X78.441 Y42.25 E2.16286
G1 X78.442 Y42.255 E2.16299
;WIDTH:0.401769
G1 X78.482 Y42.855 E2.18092
G1 X78.393 Y43.409 E2.19768
;WIDTH:0.397416
G1 X78.245 Y43.798 E2.20994
;WIDTH:0.395624
G1 X77.942 Y44.262 E2.22619
;WIDTH:0.3928
G1 X77.483 Y44.687 E2.24439
;WIDTH:0.393012
G1 X77.04 Y44.952 E2.25941
;WIDTH:0.39705
G1 X76.601 Y45.095 E2.273
;WIDTH:0.403602
G1 X75.991 Y45.15 E2.29138
G1 X75.492 Y45.077 E2.3065
;WIDTH:0.388903
G1 X74.969 Y44.882 E2.32255
;WIDTH:0.399663
G1 X74.546 Y44.61 E2.33747
;WIDTH:0.403477
G1 X74.155 Y44.208 E2.3543
G1 X73.925 Y43.861 E2.36678
;WIDTH:0.394314
G1 X73.735 Y43.365 E2.38229
;WIDTH:0.391154
G1 X73.663 Y42.823 E2.39811
;WIDTH:0.391373
G1 X73.695 Y42.279 E2.41392
;WIDTH:0.395492
G1 X73.835 Y41.801 E2.42851
G1 X73.972 Y41.553 E2.43682
;WIDTH:0.391003
G1 X74.114 Y41.356 E2.44384
G1 X73.833 Y41.08 F7800
;TYPE:External perimeter
;WIDTH:0.419999
G1 F1800
G1 X74.073 Y40.798 E2.45545
G1 X74.511 Y40.422 E2.47356
G1 X75.009 Y40.169 E2.49106
G1 X75.516 Y40.004 E2.5078
G1 X76.017 Y39.946 E2.52358
G1 X76.69 Y40.016 E2.5448
G1 X77.177 Y40.192 E2.56104
G1 X77.68 Y40.461 E2.57894
G1 X78.028 Y40.753 E2.59316
G1 X78.354 Y41.136 E2.60894
G1 X78.674 Y41.736 E2.63028
G1 X78.804 Y42.221 E2.64601
G1 X78.856 Y42.848 E2.66573
G1 X78.754 Y43.469 E2.68546
G1 X78.646 Y43.779 E2.69575
G1 X78.375 Y44.298 E2.71412
G1 X78.059 Y44.689 E2.72989
G1 X77.609 Y45.047 E2.7479
G1 X77.194 Y45.281 E2.76286
G1 X76.694 Y45.453 E2.77943
G1 X76.066 Y45.517 E2.79922
G1 X75.556 Y45.476 E2.81525
G1 X74.912 Y45.271 E2.83646
G1 X74.331 Y44.915 E2.85781
G1 X73.891 Y44.466 E2.87752
G1 X73.66 Y44.127 E2.8904
G1 X73.445 Y43.67 E2.90623
G1 X73.318 Y43.191 E2.92175
G1 X73.297 Y42.674 E2.93798
G1 X73.343 Y42.185 E2.95339
G1 X73.508 Y41.632 E2.97149
G1 X73.802 Y41.131 E2.98969
G1 X74.202 Y41.111 F7800
G1 X74.058 Y42.264
;TYPE:Perimeter
;WIDTH:0.397056
G1 F1800
G1 X74.067 Y42.204 E2.99148
;WIDTH:0.39301
G1 X74.26 Y41.741 E3.00607
G1 X74.562 Y41.319 E3.02118
;WIDTH:0.403627
G1 X74.911 Y41.035 E3.0347
G1 X75.296 Y40.817 E3.04796
;WIDTH:0.393645
G1 X75.799 Y40.684 E3.06312
G1 X76.302 Y40.68 E3.07779
;WIDTH:0.38492
G1 X76.807 Y40.802 E3.09256
;WIDTH:0.399688
G1 X77.303 Y41.079 E3.10941
G1 X77.542 Y41.283 E3.11873
;WIDTH:0.397369
G1 X77.78 Y41.569 E3.12972
;WIDTH:0.394279
G1 X78.003 Y41.991 E3.14364
G1 X78.118 Y42.474 E3.15816
;WIDTH:0.38799
G1 X78.118 Y42.994 E3.17307
;WIDTH:0.390931
G1 X78 Y43.482 E3.18761
;WIDTH:0.39337
G1 X77.763 Y43.93 E3.20237
G1 X77.311 Y44.384 E3.22105
;WIDTH:0.393012
G1 X76.879 Y44.641 E3.23567
G1 X76.342 Y44.785 E3.25185
;WIDTH:0.393613
G1 X75.752 Y44.778 E3.26908
G1 X75.268 Y44.642 E3.28373
;WIDTH:0.399663
G1 X74.699 Y44.281 E3.30373
;WIDTH:0.403477
G1 X74.429 Y43.976 E3.31594
G1 X74.185 Y43.591 E3.3296
;WIDTH:0.39569
G1 X74.032 Y43.094 E3.34486
;WIDTH:0.397056
G1 X74.01 Y42.557 E3.36067
G1 X74.048 Y42.324 E3.36764
G1 X74.41 Y42.326 F7800
;TYPE:External perimeter
;WIDTH:0.419999
G1 F1800
G1 X74.551 Y41.953 E3.38016
G1 X74.856 Y41.533 E3.39643
G1 X75.33 Y41.195 E3.41469
G1 X75.891 Y41.036 E3.43297
G1 X76.334 Y41.046 E3.44685
G1 X76.718 Y41.155 E3.45938
G1 X77.163 Y41.423 E3.47567
G1 X77.465 Y41.747 E3.48955
G1 X77.653 Y42.093 E3.5019
G1 X77.757 Y42.474 E3.51429
G1 X77.757 Y42.994 E3.53058
G1 X77.622 Y43.443 E3.54528
G1 X77.432 Y43.763 E3.55696
G1 X77.06 Y44.126 E3.57325
G1 X76.669 Y44.335 E3.58713
G1 X76.281 Y44.429 E3.59966
G1 X75.762 Y44.414 E3.61595
G1 X75.332 Y44.274 E3.63013
G1 X74.903 Y43.982 E3.6464
G1 X74.551 Y43.517 E3.66468
G1 X74.395 Y43.052 E3.68006
G1 X74.374 Y42.599 E3.69428
G1 X74.402 Y42.386 E3.70102
G1 X74.124 Y42.048 F7800
G1 E1.70102 F2400
G92 E0
G1 X75.974 Y154.862 F7800
G1 E2 F2400
;TYPE:Perimeter
;WIDTH:0.3974
G1 F1800
G1 X76.196 Y154.848 E2.00657
G1 X76.609 Y154.904 E2.01886
G1 X77.08 Y155.075 E2.03362
;WIDTH:0.391933
G1 X77.56 Y155.367 E2.04993
;WIDTH:0.392509
G1 X77.979 Y155.779 E2.06702
G1 X78.28 Y156.284 E2.08409
;WIDTH:0.394277
G1 X78.441 Y156.782 E2.09939
G1 X78.442 Y156.786 E2.09952
;WIDTH:0.401769
G1 X78.483 Y157.342 E2.11615
G1 X78.444 Y157.669 E2.12598
;WIDTH:0.389826
G1 X78.309 Y158.179 E2.14121
;WIDTH:0.403241
G1 X78.057 Y158.643 E2.15702
G1 X77.743 Y159.006 E2.1714
;WIDTH:0.396519
G1 X77.342 Y159.324 E2.18645
G1 X77.121 Y159.442 E2.19381
;WIDTH:0.392568
G1 X76.578 Y159.63 E2.21054
G1 X76.069 Y159.683 E2.22541
;WIDTH:0.392958
G1 X75.619 Y159.645 E2.23854
;WIDTH:0.400871
G1 X75.046 Y159.454 E2.25651
G1 X74.545 Y159.143 E2.27407
;WIDTH:0.40348
G1 X74.155 Y158.739 E2.29091
G1 X73.925 Y158.392 E2.30338
;WIDTH:0.394314
G1 X73.735 Y157.896 E2.3189
;WIDTH:0.391155
G1 X73.663 Y157.354 E2.33472
;WIDTH:0.391373
G1 X73.695 Y156.81 E2.35053
;WIDTH:0.395491
G1 X73.835 Y156.333 E2.36512
G1 X73.973 Y156.083 E2.37347
;WIDTH:0.391045
G1 X74.342 Y155.571 E2.39175
;WIDTH:0.403631
G1 X74.728 Y155.256 E2.40667
G1 X75.227 Y155 E2.42351
;WIDTH:0.398146
G1 X75.717 Y154.879 E2.43842
;WIDTH:0.3974
G1 X75.914 Y154.866 E2.44422
G1 X75.949 Y154.487 F7800
;TYPE:External perimeter
;WIDTH:0.419999
G1 F1800
G1 X76.546 Y154.526 E2.46296
G1 X77.12 Y154.682 E2.48162
G1 X77.717 Y155.016 E2.50308
G1 X78.176 Y155.447 E2.52281
G1 X78.371 Y155.706 E2.53299
G1 X78.673 Y156.264 E2.55287
G1 X78.804 Y156.752 E2.56871
G1 X78.856 Y157.379 E2.58844
G1 X78.754 Y158 E2.60817
G1 X78.647 Y158.309 E2.61843
G1 X78.375 Y158.829 E2.63681
G1 X78.064 Y159.215 E2.65235
G1 X77.57 Y159.609 E2.67219
G1 X77.285 Y159.766 E2.68236
G1 X76.694 Y159.984 E2.70213
G1 X76.064 Y160.048 E2.72197
G1 X75.564 Y160.008 E2.73771
G1 X74.911 Y159.802 E2.75917
G1 X74.331 Y159.446 E2.78051
G1 X73.891 Y158.997 E2.80022
G1 X73.66 Y158.658 E2.8131
G1 X73.445 Y158.201 E2.82894
G1 X73.318 Y157.722 E2.84445
G1 X73.297 Y157.205 E2.86068
G1 X73.343 Y156.716 E2.87609
G1 X73.508 Y156.163 E2.89419
G1 X73.833 Y155.611 E2.91427
G1 X74.073 Y155.328 E2.92592
G1 X74.511 Y154.953 E2.94399
G1 X75.121 Y154.643 E2.96545
G1 X75.636 Y154.525 E2.98202
G1 X75.89 Y154.495 E2.99002
G1 X76.156 Y154.83 F7800
G1 E.99002 F2400
G92 E0
G1 X77.991 Y156.518 F7800
G1 E2 F2400
;TYPE:Perimeter
;WIDTH:0.39023
G1 F1800
G1 X78.116 Y156.961 E2.01329
;WIDTH:0.387989
G1 X78.109 Y157.614 E2.03203
;WIDTH:0.395311
G1 X77.946 Y158.142 E2.04824
G1 X77.655 Y158.593 E2.06395
;WIDTH:0.392994
G1 X77.527 Y158.731 E2.06942
;WIDTH:0.396519
G1 X77.124 Y159.045 E2.08447
G1 X76.656 Y159.251 E2.09948
;WIDTH:0.391594
G1 X76.066 Y159.336 E2.11677
G1 X75.569 Y159.269 E2.13131
;WIDTH:0.388997
G1 X75.084 Y159.081 E2.14627
G1 X74.674 Y158.792 E2.16071
;WIDTH:0.394883
G1 X74.257 Y158.262 E2.18045
G1 X74.068 Y157.795 E2.19518
;WIDTH:0.391155
G1 X74.001 Y157.288 E2.21
;WIDTH:0.393371
G1 X74.056 Y156.769 E2.22522
G1 X74.26 Y156.271 E2.24088
;WIDTH:0.393102
G1 X74.563 Y155.849 E2.25601
;WIDTH:0.403631
G1 X74.911 Y155.566 E2.26947
G1 X75.353 Y155.33 E2.28448
;WIDTH:0.398146
G1 X75.876 Y155.201 E2.30039
;WIDTH:0.392666
G1 X76.426 Y155.226 E2.31642
;WIDTH:0.391523
G1 X76.905 Y155.376 E2.33097
;WIDTH:0.391933
G1 X77.351 Y155.643 E2.34604
;WIDTH:0.392509
G1 X77.707 Y155.998 E2.36066
G1 X77.967 Y156.434 E2.37543
;WIDTH:0.39023
G1 X77.975 Y156.46 E2.3762
G1 X77.652 Y156.62 F7800
;TYPE:External perimeter
;WIDTH:0.419999
G1 F1800
G1 X77.757 Y157.005 E2.38873
G1 X77.757 Y157.525 E2.40502
G1 X77.63 Y157.96 E2.41923
G1 X77.349 Y158.396 E2.4355
G1 X76.9 Y158.756 E2.45353
G1 X76.483 Y158.924 E2.46763
G1 X76.055 Y158.971 E2.48112
G1 X75.7 Y158.933 E2.49234
G1 X75.214 Y158.744 E2.50867
G1 X74.857 Y158.468 E2.52282
G1 X74.551 Y158.048 E2.53911
G1 X74.395 Y157.583 E2.55448
G1 X74.374 Y157.13 E2.56871
G1 X74.41 Y156.858 E2.57733
G1 X74.551 Y156.483 E2.58987
G1 X74.857 Y156.063 E2.60616
G1 X75.332 Y155.726 E2.62442
G1 X75.892 Y155.567 E2.64268
G1 X76.334 Y155.577 E2.65654
G1 X76.718 Y155.686 E2.66907
G1 X77.163 Y155.954 E2.68536
G1 X77.465 Y156.278 E2.69924
G1 X77.623 Y156.567 E2.70957
G1 X78.048 Y156.674 F7800
G1 E.70957 F2400
G92 E0
G1 X222.978 Y155.056 F7800
G1 E2 F2400
;TYPE:Perimeter
;WIDTH:0.391687
G1 F1800
G1 X223.392 Y154.907 E2.01276
;WIDTH:0.390958
G1 X223.941 Y154.848 E2.02874
;WIDTH:0.392646
G1 X224.439 Y154.901 E2.04329
;WIDTH:0.397351
G1 X224.851 Y155.028 E2.056
G1 X225.383 Y155.332 E2.07406
;WIDTH:0.395738
G1 X225.787 Y155.713 E2.09035
;WIDTH:0.397132
G1 X226.021 Y156.047 E2.10237
;WIDTH:0.397414
G1 X226.25 Y156.577 E2.11938
G1 X226.336 Y156.984 E2.13164
;WIDTH:0.396169
G1 X226.322 Y157.553 E2.14835
;WIDTH:0.39093
G1 X226.19 Y158.125 E2.16533
;WIDTH:0.393015
G1 X225.946 Y158.605 E2.18104
;WIDTH:0.403098
G1 X225.652 Y158.962 E2.19487
G1 X225.173 Y159.343 E2.21321
;WIDTH:0.396182
G1 X224.588 Y159.593 E2.2319
;WIDTH:0.390232
G1 X224.065 Y159.672 E2.24718
;WIDTH:0.402731
G1 X223.511 Y159.646 E2.26376
G1 X223.07 Y159.517 E2.27752
;WIDTH:0.389157
G1 X222.534 Y159.232 E2.29499
;WIDTH:0.403597
G1 X222.133 Y158.88 E2.311
G1 X221.795 Y158.403 E2.32852
;WIDTH:0.39702
G1 X221.619 Y157.984 E2.3419
;WIDTH:0.393011
G1 X221.52 Y157.453 E2.35762
;WIDTH:0.394623
G1 X221.545 Y156.859 E2.37501
;WIDTH:0.395173
G1 X221.719 Y156.286 E2.39254
;WIDTH:0.399815
G1 X222.015 Y155.786 E2.40978
G1 X222.377 Y155.421 E2.42506
;WIDTH:0.391687
G1 X222.851 Y155.101 E2.44163
G1 X222.921 Y155.076 E2.4438
G1 X222.851 Y154.702 F7800
;TYPE:External perimeter
;WIDTH:0.419999
G1 F1800
G1 X223.378 Y154.535 E2.46114
G1 X223.878 Y154.477 E2.47691
G1 X224.5 Y154.542 E2.49652
G1 X224.981 Y154.682 E2.51224
G1 X225.585 Y155.021 E2.53394
G1 X226.037 Y155.447 E2.55344
G1 X226.334 Y155.851 E2.56916
G1 X226.585 Y156.432 E2.589
G1 X226.701 Y156.969 E2.60623
G1 X226.717 Y157.375 E2.61898
G1 X226.615 Y158 E2.63881
G1 X226.507 Y158.31 E2.6491
G1 X226.254 Y158.8 E2.6664
G1 X225.925 Y159.215 E2.68299
G1 X225.472 Y159.577 E2.70119
G1 X225.025 Y159.828 E2.71726
G1 X224.555 Y159.984 E2.73278
G1 X223.926 Y160.048 E2.7526
G1 X223.417 Y160.007 E2.7686
G1 X222.773 Y159.802 E2.78981
G1 X222.236 Y159.473 E2.80956
G1 X221.863 Y159.138 E2.82528
G1 X221.566 Y158.712 E2.84155
G1 X221.339 Y158.277 E2.85695
G1 X221.189 Y157.762 E2.87376
G1 X221.145 Y157.311 E2.88797
G1 X221.18 Y156.809 E2.90375
G1 X221.371 Y156.159 E2.92498
G1 X221.689 Y155.617 E2.9447
G1 X222.017 Y155.237 E2.96044
G1 X222.527 Y154.863 E2.98027
G1 X222.797 Y154.729 E2.98972
G1 X223.169 Y154.945 F7800
G1 E.98972 F2400
G92 E0
G1 X224.892 Y155.442 F7800
G1 E2 F2400
;TYPE:Perimeter
;WIDTH:0.391004
G1 F1800
G1 X224.95 Y155.468 E2.00183
;WIDTH:0.384925
G1 X225.331 Y155.745 E2.01523
;WIDTH:0.391159
G1 X225.641 Y156.1 E2.02889
G1 X225.858 Y156.519 E2.04254
;WIDTH:0.396169
G1 X225.983 Y157.005 E2.0573
G1 X225.979 Y157.525 E2.07256
;WIDTH:0.39093
G1 X225.861 Y158.013 E2.0871
;WIDTH:0.393391
G1 X225.624 Y158.461 E2.10187
G1 X225.173 Y158.915 E2.12052
;WIDTH:0.403283
G1 X224.702 Y159.174 E2.13663
G1 X224.396 Y159.283 E2.14636
;WIDTH:0.396009
G1 X223.896 Y159.335 E2.16112
G1 X223.381 Y159.257 E2.1764
;WIDTH:0.40084
G1 X223.085 Y159.143 E2.18584
G1 X222.634 Y158.883 E2.20133
;WIDTH:0.393154
G1 X222.246 Y158.459 E2.21806
;WIDTH:0.391436
G1 X222.003 Y158.02 E2.23262
G1 X221.87 Y157.484 E2.24862
;WIDTH:0.393237
G1 X221.881 Y156.967 E2.26368
;WIDTH:0.395173
G1 X222.029 Y156.453 E2.27934
;WIDTH:0.399815
G1 X222.291 Y156.013 E2.29454
G1 X222.604 Y155.68 E2.30812
;WIDTH:0.389324
G1 X223.07 Y155.381 E2.32405
;WIDTH:0.392934
G1 X223.573 Y155.225 E2.33937
G1 X224.053 Y155.202 E2.35336
;WIDTH:0.391004
G1 X224.517 Y155.28 E2.367
G1 X224.837 Y155.419 E2.37708
G1 X224.747 Y155.764 F7800
;TYPE:External perimeter
;WIDTH:0.419999
G1 F1800
G1 X225.066 Y155.988 E2.38929
G1 X225.386 Y156.385 E2.40526
G1 X225.513 Y156.62 E2.41366
G1 X225.618 Y157.005 E2.42618
G1 X225.618 Y157.525 E2.44247
G1 X225.483 Y157.974 E2.45718
G1 X225.293 Y158.295 E2.46886
G1 X224.921 Y158.656 E2.48513
G1 X224.396 Y158.909 E2.50341
G1 X223.947 Y158.973 E2.51762
G1 X223.433 Y158.899 E2.53391
G1 X222.913 Y158.637 E2.55215
G1 X222.512 Y158.216 E2.5704
G1 X222.314 Y157.82 E2.58429
G1 X222.23 Y157.439 E2.5965
G1 X222.24 Y157.031 E2.60931
G1 X222.356 Y156.614 E2.62287
G1 X222.562 Y156.261 E2.63568
G1 X222.865 Y155.93 E2.64976
G1 X223.24 Y155.702 E2.66352
G1 X223.612 Y155.587 E2.67572
G1 X224.001 Y155.558 E2.68797
G1 X224.386 Y155.618 E2.70017
G1 X224.691 Y155.742 E2.7105
G1 X225.079 Y155.561 F7800
G1 E.7105 F2400
G92 E0
G1 X225.811 Y44.26 F7800
G1 E2 F2400
;TYPE:Perimeter
;WIDTH:0.396291
G1 F1800
G1 X225.621 Y44.461 E2.00813
;WIDTH:0.393857
G1 X225.158 Y44.816 E2.02515
G1 X224.621 Y45.055 E2.04232
;WIDTH:0.393673
G1 X224.031 Y45.151 E2.05975
;WIDTH:0.393097
G1 X223.517 Y45.121 E2.07473
G1 X223.024 Y44.971 E2.08975
;WIDTH:0.389422
G1 X222.8 Y44.864 E2.09689
G1 X222.256 Y44.479 E2.1161
;WIDTH:0.40188
G1 X221.89 Y44.029 E2.1334
;WIDTH:0.402993
G1 X221.632 Y43.482 E2.15152
G1 X221.52 Y42.922 E2.16861
;WIDTH:0.394624
G1 X221.54 Y42.345 E2.1855
G1 X221.681 Y41.855 E2.20042
;WIDTH:0.392559
G1 X221.897 Y41.42 E2.21453
;WIDTH:0.399681
G1 X222.259 Y40.989 E2.23123
G1 X222.563 Y40.752 E2.24265
;WIDTH:0.394823
G1 X223.048 Y40.482 E2.25888
G1 X223.32 Y40.405 E2.26717
;WIDTH:0.390393
G1 X223.956 Y40.315 E2.28572
;WIDTH:0.393745
G1 X224.481 Y40.377 E2.30113
G1 X224.963 Y40.55 E2.31607
;WIDTH:0.397131
G1 X225.366 Y40.787 E2.32985
G1 X225.787 Y41.182 E2.34685
G1 X226.021 Y41.516 E2.35887
;WIDTH:0.397414
G1 X226.25 Y42.046 E2.37588
G1 X226.334 Y42.445 E2.38791
;WIDTH:0.394656
G1 X226.334 Y42.474 E2.38875
;WIDTH:0.394315
G1 X226.334 Y42.994 E2.40393
G1 X226.296 Y43.233 E2.41102
;WIDTH:0.39093
