; generated by PrusaSlicer 2.5.0+win64 on 2022-12-21 at 22:39:23 UTC

; 

; external perimeters extrusion width = 0.45mm
; perimeters extrusion width = 0.45mm
; infill extrusion width = 0.45mm
; solid infill extrusion width = 0.45mm
; top infill extrusion width = 0.40mm
; first layer extrusion width = 0.42mm

M107
M190 S110 ; set bed temperature and wait for it to be reached
M104 S230 ; set temperature
;TYPE:Custom
G28 ; home all axes
G1 Z5 F5000 ; lift nozzle
M109 S230 ; set temperature and wait for it to be reached
G21 ; set units to millimeters
G90 ; use absolute coordinates
M82 ; use absolute distances for extrusion
G92 E0
; Filament gcode
M107
;LAYER_CHANGE
;Z:0.2
;HEIGHT:0.2
G1 Z.2 F7800
G1 E-2 F2400
G92 E0
G1 X143.405 Y96.483 F7800
G1 E2 F2400
;TYPE:Skirt/Brim
;WIDTH:0.42
G1 F973
G1 X144.292 Y95.178 E2.04948
G1 X145.299 Y94.187 E2.09378
G1 X146.138 Y93.603 E2.12583
G1 X146.977 Y93.163 E2.15554
G1 X148.014 Y92.798 E2.19001
G1 X149.017 Y92.589 E2.22212
G1 X149.885 Y92.53 E2.24942
G1 X150.983 Y92.589 E2.28388
G1 X152.208 Y92.862 E2.32324
G1 X153.023 Y93.163 E2.35047
G1 X153.796 Y93.563 E2.37775
G1 X154.76 Y94.236 E2.41464
G1 X155.708 Y95.178 E2.45653
G1 X156.595 Y96.483 E2.50601
G1 X157.066 Y97.561 E2.5429
G1 X157.427 Y99.138 E2.59361
G1 X157.434 Y100.792 E2.64546
G1 X157.172 Y102.112 E2.68769
G1 X156.614 Y103.485 E2.73412
G1 X155.757 Y104.77 E2.78256
G1 X154.699 Y105.814 E2.82917
G1 X153.626 Y106.537 E2.86973
G1 X152.078 Y107.181 E2.92232
G1 X151.166 Y107.384 E2.95162
G1 X150.298 Y107.47 E2.97895
G1 X149.018 Y107.411 E3.01912
G1 X147.536 Y107.058 E3.06689
G1 X146.167 Y106.418 E3.11427
G1 X145.286 Y105.802 E3.14798
G1 X144.584 Y105.151 E3.178
G1 X144.045 Y104.519 E3.20404
G1 X143.341 Y103.398 E3.24553
G1 X142.849 Y102.182 E3.28668
G1 X142.547 Y100.579 E3.33783
G1 X142.547 Y99.428 E3.37392
G1 X142.683 Y98.475 E3.4041
G1 X142.934 Y97.561 E3.4338
G1 X143.381 Y96.538 E3.46881
G1 E1.46881 F2400
G92 E0
G1 X149.503 Y99.944 F7800
G1 E2 F2400
;TYPE:Perimeter
;WIDTH:0.419999
G1 F973
G1 X149.581 Y99.725 E2.0073
G1 X149.769 Y99.547 E2.01541
G1 X150.085 Y99.504 E2.02542
G1 X150.326 Y99.613 E2.03371
G1 X150.463 Y99.839 E2.04201
G1 X150.489 Y100.046 E2.04854
G1 X150.479 Y100.143 E2.0516
G1 X150.36 Y100.355 E2.05923
G1 X150.105 Y100.49 E2.06826
G1 X149.899 Y100.49 E2.07473
G1 X149.697 Y100.402 E2.08165
G1 X149.558 Y100.217 E2.0889
G1 X149.514 Y100.003 E2.09575
G1 X149.292 Y100.533 F7800
;TYPE:External perimeter
G1 F973
G1 X149.144 Y100.229 E2.10635
G1 X149.121 Y99.892 E2.11695
G1 X149.25 Y99.527 E2.12908
G1 X149.537 Y99.248 E2.14162
G1 X149.842 Y99.127 E2.15191
G1 X150.154 Y99.127 E2.16169
G1 X150.512 Y99.282 E2.17391
G1 X150.779 Y99.584 E2.18654
G1 X150.881 Y99.913 E2.19737
G1 X150.846 Y100.26 E2.20828
G1 X150.759 Y100.414 E2.21382
G1 X150.577 Y100.666 E2.22357
G1 X150.182 Y100.867 E2.23749
G1 X149.82 Y100.867 E2.24883
G1 X149.482 Y100.72 E2.2604
G1 X149.335 Y100.575 E2.26686
G1 X149.427 Y100.223 F7800
;LAYER_CHANGE
;Z:0.32
;HEIGHT:0.12
G1 Z.32 F7800
G1 X150.219 Y99.998
;TYPE:Perimeter
;WIDTH:0.362385
G1 F600
G1 X150.148 Y99.84 E2.26977
G1 X150.007 Y99.788 E2.2723
G1 X149.87 Y99.829 E2.27471
G1 X149.795 Y99.959 E2.27723
G1 X149.822 Y100.11 E2.2798
G1 X150.058 Y100.106 E2.28378
G1 X150.219 Y99.998 E2.28702
G1 X150.415 Y100.326 F7800
;WIDTH:0.449999
G1 F600
G1 X150.133 Y100.496 E2.294
G1 X149.835 Y100.494 E2.3003
G1 X149.58 Y100.42 E2.30593
G1 X149.441 Y100.195 E2.31152
G1 X149.416 Y99.933 E2.31709
G1 X149.489 Y99.681 E2.32264
G1 X149.746 Y99.451 E2.32994
G1 X150.085 Y99.404 E2.33718
G1 X150.389 Y99.538 E2.34421
G1 X150.577 Y99.822 E2.35144
G1 X150.592 Y100.112 E2.35756
G1 X150.461 Y100.289 E2.36223
G1 X150.645 Y100.708 F7800
;TYPE:External perimeter
G1 F600
G1 X150.164 Y100.929 E2.37345
G1 X149.586 Y100.896 E2.38569
G1 X149.304 Y100.757 E2.39235
G1 X149.08 Y100.465 E2.40014
G1 X148.977 Y100.129 E2.40758
G1 X149.004 Y99.733 E2.41598
G1 X149.128 Y99.448 E2.42256
G1 X149.361 Y99.192 E2.42989
G1 X149.683 Y99.027 E2.43755
G1 X150.141 Y98.978 E2.4473
G1 X150.322 Y99.033 E2.4513
G1 X150.67 Y99.214 E2.45959
G1 X150.87 Y99.444 E2.46604
G1 X150.988 Y99.7 E2.47202
G1 X151.02 Y100.105 E2.48061
G1 X151.004 Y100.239 E2.48348
G1 X150.881 Y100.475 E2.4891
G1 X150.688 Y100.666 E2.49485
G1 X150.286 Y100.533 F7800
;LAYER_CHANGE
;Z:0.44
;HEIGHT:0.12
G1 Z.44 F7800
G1 X149.922 Y100.045
;TYPE:Perimeter
;WIDTH:0.422448
G1 F600
G1 X149.898 Y99.865 E2.49845
G1 X149.953 Y99.745 E2.50107
G1 X150.074 Y99.708 E2.50357
G1 X150.227 Y99.81 E2.50719
G1 X150.292 Y99.94 E2.51008
G1 X150.299 Y100.069 E2.51263
G1 X150.219 Y100.201 E2.51568
G1 X150.079 Y100.223 E2.51848
G1 X149.948 Y100.095 E2.5221
G1 X149.485 Y100.069 F7800
;WIDTH:0.449999
G1 F600
G1 X149.504 Y99.711 E2.5297
G1 X149.634 Y99.479 E2.53532
G1 X149.884 Y99.31 E2.54171
G1 X150.125 Y99.301 E2.54683
G1 X150.42 Y99.415 E2.5535
G1 X150.613 Y99.621 E2.5595
G1 X150.702 Y99.917 E2.56603
G1 X150.713 Y100.127 E2.57047
G1 X150.657 Y100.301 E2.57433
G1 X150.45 Y100.554 E2.58127
G1 X150.163 Y100.641 E2.58763
G1 X149.863 Y100.583 E2.5941
G1 X149.629 Y100.358 E2.60097
G1 X149.512 Y100.123 E2.60654
G1 X149.066 Y100.158 F7800
;TYPE:External perimeter
G1 F600
G1 X149.051 Y99.911 E2.61177
G1 X149.137 Y99.487 E2.62093
G1 X149.317 Y99.193 E2.62821
G1 X149.642 Y98.958 E2.63672
G1 X149.979 Y98.851 E2.6442
G1 X150.356 Y98.906 E2.65225
G1 X150.678 Y99.07 E2.65991
G1 X150.974 Y99.385 E2.66906
G1 X151.115 Y99.714 E2.67664
G1 X151.131 Y99.995 E2.68258
G1 X151.106 Y100.303 E2.68912
G1 X150.972 Y100.619 E2.69639
G1 X150.689 Y100.92 E2.70513
G1 X150.192 Y101.065 E2.71608
G1 X149.83 Y101.028 E2.72379
G1 X149.457 Y100.818 E2.73285
G1 X149.193 Y100.496 E2.74166
G1 X149.087 Y100.214 E2.74804
G1 X149.248 Y99.991 F7800
M106 S255
;LAYER_CHANGE
;Z:0.56
;HEIGHT:0.12
G1 Z.56 F7800
G1 X150.228 Y99.972
;TYPE:Perimeter
;WIDTH:0.478433
G1 F600
G1 X150.29 Y100.159 E2.75249
G1 X150.255 Y100.286 E2.75549
G1 X150.111 Y100.386 E2.75943
G1 X149.951 Y100.353 E2.76312
G1 X149.833 Y100.231 E2.76694
G1 X149.829 Y100.067 E2.77065
G1 X149.957 Y99.936 E2.77478
G1 X150.084 Y99.916 E2.77768
G1 X150.172 Y99.95 E2.77981
G1 X150.428 Y99.572 F7800
;WIDTH:0.449999
G1 F600
G1 X150.627 Y99.759 E2.78558
G1 X150.687 Y99.923 E2.78928
G1 X150.728 Y100.17 E2.79459
G1 X150.725 Y100.284 E2.79701
G1 X150.631 Y100.528 E2.80253
G1 X150.429 Y100.712 E2.80831
G1 X150.095 Y100.841 E2.81589
G1 X149.732 Y100.741 E2.82387
G1 X149.534 Y100.577 E2.8293
G1 X149.4 Y100.307 E2.83569
G1 X149.387 Y100.071 E2.84068
G1 X149.457 Y99.821 E2.84618
G1 X149.769 Y99.533 E2.85517
G1 X150.011 Y99.482 E2.86041
G1 X150.384 Y99.533 E2.86837
G1 X150.735 Y99.246 F7800
;TYPE:External perimeter
G1 F600
G1 X150.997 Y99.535 E2.87663
G1 X151.158 Y99.974 E2.88653
G1 X151.148 Y100.369 E2.89489
G1 X151.001 Y100.749 E2.90351
G1 X150.783 Y101.002 E2.91059
G1 X150.284 Y101.234 E2.92222
G1 X149.947 Y101.265 E2.92938
G1 X149.52 Y101.116 E2.93895
G1 X149.213 Y100.862 E2.9474
G1 X149.031 Y100.577 E2.95455
G1 X148.94 Y100.213 E2.96248
G1 X148.994 Y99.806 E2.97117
G1 X149.104 Y99.575 E2.9766
G1 X149.426 Y99.245 E2.98637
G1 X149.669 Y99.118 E2.99216
G1 X150.142 Y99.045 E3.00229
G1 X150.434 Y99.109 E3.00862
G1 X150.68 Y99.221 E3.01434
G1 X150.68 Y99.632 F7800
;LAYER_CHANGE
;Z:0.68
;HEIGHT:0.12
G1 Z.68 F7800
G1 X149.872 Y99.818
;TYPE:Perimeter
;WIDTH:0.475712
G1 F600
G1 X150.06 Y99.963 E3.01969
G1 X150.084 Y100.158 E3.0241
G1 X150 Y100.28 E3.02742
G1 X149.823 Y100.299 E3.03141
G1 X149.668 Y100.221 E3.03533
G1 X149.615 Y100.088 E3.03855
G1 X149.703 Y99.894 E3.04331
G1 X149.817 Y99.843 E3.04612
G1 X149.919 Y99.395 F7800
;WIDTH:0.449999
G1 F600
G1 X150.159 Y99.458 E3.05136
G1 X150.466 Y99.772 E3.06066
G1 X150.522 Y100.162 E3.06901
G1 X150.455 Y100.391 E3.07407
G1 X150.284 Y100.619 E3.0801
G1 X150.047 Y100.732 E3.08566
G1 X149.761 Y100.732 E3.09171
G1 X149.423 Y100.606 E3.09935
G1 X149.326 Y100.494 E3.10249
G1 X149.193 Y100.246 E3.10844
G1 X149.186 Y99.946 E3.11478
G1 X149.3 Y99.685 E3.12081
G1 X149.461 Y99.514 E3.1258
G1 X149.666 Y99.411 E3.13064
G1 X149.861 Y99.381 E3.13482
G1 X150.033 Y98.959 F7800
;TYPE:External perimeter
G1 F600
G1 X150.385 Y99.089 E3.14276
G1 X150.816 Y99.529 E3.1558
G1 X150.925 Y99.881 E3.1636
G1 X150.945 Y100.2 E3.17036
G1 X150.926 Y100.405 E3.17471
G1 X150.812 Y100.625 E3.17997
G1 X150.627 Y100.877 E3.18658
G1 X150.361 Y101.07 E3.19354
G1 X149.912 Y101.179 E3.20331
G1 X149.531 Y101.131 E3.21143
G1 X149.158 Y100.95 E3.22021
G1 X148.859 Y100.551 E3.23075
G1 X148.744 Y100.204 E3.23849
G1 X148.767 Y99.845 E3.24611
G1 X148.94 Y99.448 E3.25527
G1 X149.204 Y99.168 E3.26341
G1 X149.56 Y98.989 E3.27185
G1 X149.973 Y98.963 E3.28061
G1 X150.169 Y99.309 F7800
;LAYER_CHANGE
;Z:0.8
;HEIGHT:0.12
G1 Z.8 F7800
G1 X149.881 Y100.103
;TYPE:Perimeter
;WIDTH:0.476785
G1 F600
G1 X149.733 Y100.037 E3.28425
G1 X149.69 Y99.791 E3.28988
G1 X149.751 Y99.697 E3.29239
G1 X149.885 Y99.623 E3.29583
G1 X150.057 Y99.677 E3.29988
G1 X150.176 Y99.834 E3.30433
G1 X150.176 Y99.867 E3.30507
G1 X150.104 Y100.006 E3.30858
G1 X149.936 Y100.079 E3.3127
G1 X149.797 Y100.526 F7800
;WIDTH:0.449999
G1 F600
G1 X149.465 Y100.391 E3.32028
G1 X149.309 Y100.18 E3.32583
G1 X149.254 Y99.819 E3.33356
G1 X149.291 Y99.595 E3.33837
G1 X149.515 Y99.308 E3.34607
G1 X149.853 Y99.176 E3.35375
G1 X149.99 Y99.196 E3.35668
G1 X150.243 Y99.279 E3.36231
G1 X150.474 Y99.458 E3.36851
G1 X150.614 Y99.787 E3.37608
G1 X150.597 Y100.004 E3.38069
G1 X150.489 Y100.225 E3.3859
G1 X150.216 Y100.467 E3.39361
G1 X149.937 Y100.541 E3.39972
G1 X149.856 Y100.532 E3.40144
G1 X149.749 Y100.965 F7800
;TYPE:External perimeter
G1 F600
G1 X149.379 Y100.848 E3.40966
G1 X149.039 Y100.555 E3.41915
G1 X148.851 Y100.163 E3.42835
G1 X148.821 Y99.71 E3.43796
G1 X148.963 Y99.28 E3.44754
G1 X149.075 Y99.159 E3.45103
G1 X149.35 Y98.912 E3.45887
G1 X149.821 Y98.743 E3.46946
G1 X150.275 Y98.809 E3.47916
G1 X150.641 Y99.018 E3.48809
G1 X150.823 Y99.209 E3.49368
G1 X151.003 Y99.557 E3.50197
G1 X151.038 Y99.866 E3.50854
G1 X150.98 Y100.227 E3.51628
G1 X150.707 Y100.633 E3.52664
G1 X150.402 Y100.856 E3.53463
G1 X150.1 Y100.936 E3.54125
G1 X149.809 Y100.96 E3.54743
G1 X149.607 Y100.603 F7800
;LAYER_CHANGE
;Z:0.92
;HEIGHT:0.12
G1 Z.92 F7800
G1 X149.928 Y100.007
;TYPE:Perimeter
;WIDTH:0.478306
G1 F600
G1 X149.902 Y99.801 E3.55212
G1 X150.011 Y99.695 E3.55556
G1 X150.252 Y99.696 E3.561
G1 X150.375 Y99.848 E3.56541
G1 X150.349 Y100.004 E3.56898
G1 X150.223 Y100.141 E3.57319
G1 X150.082 Y100.144 E3.57636
G1 X149.972 Y100.047 E3.57967
G1 X149.518 Y100.182 F7800
;WIDTH:0.449999
G1 F600
G1 X149.476 Y99.997 E3.5837
G1 X149.474 Y99.683 E3.59034
G1 X149.61 Y99.454 E3.59598
G1 X149.828 Y99.294 E3.60169
G1 X150.091 Y99.241 E3.60738
G1 X150.416 Y99.283 E3.61431
G1 X150.673 Y99.488 E3.62128
G1 X150.823 Y99.825 E3.62908
G1 X150.725 Y100.253 E3.63838
G1 X150.514 Y100.47 E3.64477
G1 X150.225 Y100.601 E3.6515
G1 X149.902 Y100.553 E3.6584
G1 X149.643 Y100.371 E3.66511
G1 X149.551 Y100.232 E3.66862
G1 X149.122 Y100.352 F7800
;TYPE:External perimeter
G1 F600
G1 X149.02 Y99.909 E3.67825
G1 X149.06 Y99.574 E3.68538
G1 X149.19 Y99.312 E3.69157
G1 X149.452 Y99.023 E3.69983
G1 X149.752 Y98.872 E3.70693
G1 X150.222 Y98.807 E3.71699
G1 X150.626 Y98.908 E3.7258
G1 X150.88 Y99.101 E3.73254
G1 X151.13 Y99.412 E3.74099
G1 X151.236 Y99.724 E3.74796
G1 X151.252 Y99.827 E3.75016
G1 X151.136 Y100.371 E3.76194
G1 X150.945 Y100.674 E3.76952
G1 X150.628 Y100.916 E3.77796
G1 X150.214 Y101.032 E3.78707
G1 X149.728 Y100.95 E3.79751
G1 X149.333 Y100.671 E3.80772
G1 X149.155 Y100.402 E3.81456
G1 X149.358 Y100.03 F7800
;LAYER_CHANGE
;Z:1.04
;HEIGHT:0.12
G1 Z1.04 F7800
G1 X149.917 Y99.942
;TYPE:Perimeter
;WIDTH:0.418722
G1 F600
G1 X150.114 Y99.857 E3.81877
G1 X150.239 Y99.897 E3.82133
G1 X150.345 Y100.051 E3.825
G1 X150.326 Y100.295 E3.82979
;WIDTH:0.413871
G1 X150.197 Y100.392 E3.83292
G1 X150.006 Y100.379 E3.83662
;WIDTH:0.418722
G1 X149.929 Y100.001 E3.84419
G1 X149.481 Y99.854 F7800
;WIDTH:0.449999
G1 F600
G1 X149.596 Y99.689 E3.84844
G1 X149.859 Y99.496 E3.85535
G1 X150.097 Y99.448 E3.86049
G1 X150.266 Y99.458 E3.86407
G1 X150.577 Y99.627 E3.87156
G1 X150.747 Y99.946 E3.87922
G1 X150.767 Y100.241 E3.88546
G1 X150.651 Y100.538 E3.89222
G1 X150.41 Y100.737 E3.89884
G1 X150.188 Y100.803 E3.90374
G1 X149.878 Y100.765 E3.91036
G1 X149.641 Y100.619 E3.91624
G1 X149.493 Y99.912 E3.93152
G1 X149.036 Y99.796 F7800
;TYPE:External perimeter
G1 F600
G1 X149.097 Y99.661 E3.93465
G1 X149.354 Y99.308 E3.94389
G1 X149.682 Y99.106 E3.95205
G1 X150.132 Y99.022 E3.96173
G1 X150.499 Y99.078 E3.96958
G1 X150.917 Y99.371 E3.9804
G1 X151.165 Y99.838 E3.99158
G1 X151.196 Y100.29 E4.00116
G1 X151.078 Y100.677 E4.00973
G1 X150.773 Y101.012 E4.01933
G1 X150.343 Y101.224 E4.02946
G1 X149.956 Y101.231 E4.03766
G1 X149.622 Y101.131 E4.04504
G1 X149.251 Y100.826 E4.05521
G1 X149.048 Y99.854 E4.07621
G1 X149.173 Y99.741 F7800
;LAYER_CHANGE
;Z:1.16
;HEIGHT:0.12
G1 Z1.16 F7800
G1 X149.94 Y99.868
;TYPE:Perimeter
;WIDTH:0.433232
G1 F600
G1 X150.071 Y99.932 E4.07917
G1 X150.135 Y100.197 E4.08471
G1 X150.056 Y100.304 E4.08742
G1 X149.843 Y100.359 E4.09189
G1 X149.697 Y100.298 E4.0951
G1 X149.731 Y99.879 E4.10365
G1 X149.886 Y99.842 E4.10688
G1 X150.152 Y99.481 F7800
;WIDTH:0.449999
G1 F600
G1 X150.399 Y99.667 E4.11342
G1 X150.525 Y99.957 E4.12011
G1 X150.552 Y100.198 E4.12525
G1 X150.543 Y100.304 E4.12749
G1 X150.397 Y100.564 E4.1338
G1 X150.152 Y100.717 E4.13993
G1 X149.876 Y100.773 E4.14589
G1 X149.589 Y100.732 E4.15201
G1 X149.408 Y100.602 E4.15673
G1 X149.229 Y100.322 E4.16378
G1 X149.314 Y100.08 E4.16919
G1 X149.293 Y99.785 E4.17545
G1 X149.364 Y99.653 E4.17862
G1 X149.613 Y99.475 E4.1851
G1 X149.911 Y99.415 E4.19153
G1 X150.094 Y99.466 E4.19556
G1 X150.318 Y99.087 F7800
;TYPE:External perimeter
G1 F600
G1 X150.631 Y99.306 E4.20363
G1 X150.861 Y99.602 E4.21157
G1 X150.992 Y100.038 E4.22119
G1 X150.959 Y100.413 E4.22916
G1 X150.828 Y100.703 E4.23592
G1 X150.599 Y100.946 E4.24297
G1 X150.164 Y101.176 E4.2534
G1 X149.759 Y101.208 E4.26199
G1 X149.41 Y101.126 E4.26957
G1 X149.208 Y100.981 E4.27484
G1 X148.976 Y100.743 E4.28187
G1 X148.795 Y100.387 E4.29033
G1 X148.804 Y100.285 E4.29248
G1 X148.888 Y100.046 E4.29785
G1 X148.846 Y99.721 E4.30478
G1 X149.022 Y99.392 E4.31268
G1 X149.247 Y99.179 E4.31924
G1 X149.579 Y99.021 E4.32702
G1 X149.947 Y98.985 E4.33486
G1 X150.261 Y99.071 E4.34173
G1 X150.352 Y99.467 F7800
;LAYER_CHANGE
;Z:1.28
;HEIGHT:0.12
G1 Z1.28 F7800
G1 X149.86 Y100.158
;TYPE:Perimeter
;WIDTH:0.397104
G1 F600
G1 X149.75 Y99.669 E4.351
G1 X149.781 Y99.617 E4.35213
G1 X150.018 Y99.63 E4.35654
G1 X150.177 Y99.841 E4.36143
G1 X150.155 Y99.954 E4.36356
G1 X150.066 Y100.099 E4.36671
G1 X149.918 Y100.141 E4.36957
G1 X149.534 Y100.44 F7800
;WIDTH:0.449999
G1 F600
G1 X149.415 Y99.99 E4.37941
G1 X149.326 Y99.494 E4.39008
G1 X149.594 Y99.265 E4.39752
G1 X149.861 Y99.206 E4.40333
G1 X150.174 Y99.262 E4.41005
G1 X150.472 Y99.522 E4.41843
G1 X150.579 Y99.797 E4.42467
G1 X150.531 Y100.104 E4.43125
G1 X150.371 Y100.365 E4.43772
G1 X149.984 Y100.567 E4.44696
G1 X149.854 Y100.567 E4.44972
G1 X149.59 Y100.462 E4.45575
G1 X149.189 Y100.742 F7800
;TYPE:External perimeter
G1 F600
G1 X149.074 Y100.407 E4.46324
G1 X148.859 Y99.452 E4.48397
G1 X148.961 Y99.279 E4.48822
G1 X149.204 Y99.024 E4.49568
G1 X149.539 Y98.818 E4.50401
G1 X150.086 Y98.791 E4.51559
G1 X150.517 Y98.966 E4.52543
G1 X150.829 Y99.28 E4.5348
G1 X151.001 Y99.75 E4.54541
G1 X150.962 Y100.112 E4.5531
G1 X150.825 Y100.469 E4.56121
G1 X150.586 Y100.736 E4.56879
G1 X150.09 Y100.983 E4.58052
G1 X149.657 Y100.975 E4.58968
G1 X149.243 Y100.769 E4.59947
G1 X149.324 Y100.414 F7800
;LAYER_CHANGE
;Z:1.4
;HEIGHT:0.12
G1 Z1.4 F7800
G1 X150.017 Y100.143
;TYPE:Perimeter
;WIDTH:0.389541
G1 F600
G1 X150.026 Y100.088 E4.60048
G1 X149.974 Y99.636 E4.60874
;WIDTH:0.388776
G1 X150.166 Y99.596 E4.61228
G1 X150.367 Y99.75 E4.61688
;WIDTH:0.389541
G1 X150.382 Y99.899 E4.61959
G1 X150.339 Y100.057 E4.62256
G1 X150.156 Y100.169 E4.62646
G1 X150.076 Y100.154 E4.62794
G1 X149.567 Y100.29 F7800
;WIDTH:0.449999
G1 F600
