; generated by PrusaSlicer 2.5.0+win64 on 2022-12-21 at 20:32:41 UTC

; 

; external perimeters extrusion width = 0.45mm
; perimeters extrusion width = 0.45mm
; infill extrusion width = 0.45mm
; solid infill extrusion width = 0.45mm
; top infill extrusion width = 0.40mm
; first layer extrusion width = 0.42mm

M107
M190 S110 ; set bed temperature and wait for it to be reached
M104 S230 ; set temperature
;TYPE:Custom
G28 ; home all axes
G1 Z5 F5000 ; lift nozzle
M109 S230 ; set temperature and wait for it to be reached
G21 ; set units to millimeters
G90 ; use absolute coordinates
M82 ; use absolute distances for extrusion
G92 E0
; Filament gcode
M107
;LAYER_CHANGE
;Z:0.2
;HEIGHT:0.2
G1 Z.2 F7800
G1 E-2 F2400
G92 E0
G1 X143.588 Y96.156 F7800
G1 E2 F2400
;TYPE:Skirt/Brim
;WIDTH:0.42
G1 F981
G1 X144.011 Y95.531 E2.02365
G1 X144.858 Y94.573 E2.06374
G1 X145.763 Y93.843 E2.1002
G1 X146.564 Y93.361 E2.12952
G1 X147.513 Y92.952 E2.16192
G1 X149.054 Y92.589 E2.21154
G1 X150.366 Y92.533 E2.25273
G1 X151.6 Y92.699 E2.29176
G1 X152.515 Y92.961 E2.32161
G1 X153.443 Y93.367 E2.35337
G1 X154.825 Y94.295 E2.40555
G1 X155.763 Y95.239 E2.44728
G1 X156.436 Y96.203 E2.48415
G1 X156.837 Y96.976 E2.51144
G1 X157.149 Y97.831 E2.53999
G1 X157.409 Y99.004 E2.57766
G1 X157.471 Y100.282 E2.61778
G1 X157.211 Y101.973 E2.67143
G1 X156.763 Y103.185 E2.71194
G1 X156.385 Y103.888 E2.73696
G1 X155.836 Y104.672 E2.76698
G1 X155.069 Y105.495 E2.80225
G1 X153.713 Y106.489 E2.85496
G1 X152.55 Y107.027 E2.89514
G1 X151.341 Y107.354 E2.93444
G1 X149.67 Y107.469 E2.98695
G1 X148.383 Y107.299 E3.02763
G1 X146.819 Y106.765 E3.07945
G1 X145.763 Y106.157 E3.11765
G1 X144.858 Y105.427 E3.15412
G1 X144.011 Y104.469 E3.19421
G1 X143.588 Y103.844 E3.21785
G1 X143.162 Y103.012 E3.24717
G1 X142.791 Y101.979 E3.2816
G1 X142.6 Y101.026 E3.31205
G1 X142.524 Y99.968 E3.34534
G1 X142.605 Y98.938 E3.37773
G1 X142.791 Y98.021 E3.40705
G1 X143.162 Y96.988 E3.44148
G1 X143.561 Y96.209 E3.46891
G1 E1.46891 F2400
G92 E0
G1 X149.498 Y99.933 F7800
G1 E2 F2400
;TYPE:Perimeter
;WIDTH:0.419999
G1 F981
G1 X149.63 Y99.651 E2.00975
G1 X149.906 Y99.503 E2.01957
G1 X150.125 Y99.509 E2.02642
G1 X150.363 Y99.645 E2.03502
G1 X150.478 Y99.893 E2.04358
G1 X150.5 Y100.015 E2.04749
G1 X150.403 Y100.281 E2.05636
G1 X150.19 Y100.465 E2.06519
G1 X149.907 Y100.484 E2.07406
G1 X149.732 Y100.41 E2.08002
G1 X149.551 Y100.239 E2.08784
G1 X149.508 Y99.992 E2.0957
G1 X149.124 Y99.883 F7800
;TYPE:External perimeter
G1 F981
G1 X149.253 Y99.522 E2.10772
G1 X149.546 Y99.237 E2.12053
G1 X149.93 Y99.122 E2.13309
G1 X150.239 Y99.145 E2.14282
G1 X150.59 Y99.343 E2.15543
G1 X150.821 Y99.668 E2.16795
G1 X150.885 Y100.024 E2.17929
G1 X150.809 Y100.359 E2.19006
G1 X150.614 Y100.638 E2.20072
G1 X150.335 Y100.82 E2.21119
G1 X150 Y100.886 E2.22189
G1 X149.664 Y100.82 E2.23262
G1 X149.359 Y100.613 E2.24418
G1 X149.153 Y100.265 E2.25685
G1 X149.129 Y99.943 E2.267
G1 X149.477 Y99.734 F7800
G1 X150.035 Y99.93
;TYPE:Perimeter
;WIDTH:0.649882
G1 F981
G1 X149.959 Y99.93 E2.27083
G1 X149.921 Y99.995 E2.27465
G1 X149.959 Y100.061 E2.27848
G1 X150.035 Y100.061 E2.28231
G1 X150.073 Y99.995 E2.28614
;LAYER_CHANGE
;Z:0.32
;HEIGHT:0.12
G1 Z.32 F7800
G1 X150.206 Y100.003
;WIDTH:0.364891
G1 F600
G1 X150.143 Y99.84 E2.28908
G1 X149.991 Y99.78 E2.29185
G1 X149.823 Y99.865 E2.29504
G1 X149.786 Y100.034 E2.29797
G1 X149.854 Y100.12 E2.29982
G1 X150.077 Y100.103 E2.30361
G1 X150.206 Y100.003 E2.30637
G1 X149.984 Y100.499 F7800
;WIDTH:0.449999
G1 F600
G1 X149.922 Y100.511 E2.30772
G1 X149.598 Y100.43 E2.31477
G1 X149.482 Y100.304 E2.3184
G1 X149.396 Y99.993 E2.32522
G1 X149.498 Y99.661 E2.33258
G1 X149.719 Y99.465 E2.33883
G1 X149.995 Y99.395 E2.34485
G1 X150.319 Y99.488 E2.35199
G1 X150.538 Y99.73 E2.3589
G1 X150.584 Y100.07 E2.36615
G1 X150.537 Y100.215 E2.36938
G1 X150.251 Y100.45 E2.37721
G1 X150.043 Y100.488 E2.38169
G1 X150.067 Y100.945 F7800
;TYPE:External perimeter
G1 F600
G1 X149.694 Y100.922 E2.38959
G1 X149.353 Y100.79 E2.39733
G1 X149.117 Y100.533 E2.40471
G1 X148.98 Y100.096 E2.41442
G1 X149.005 Y99.783 E2.42105
G1 X149.137 Y99.434 E2.42895
G1 X149.399 Y99.175 E2.43675
G1 X149.742 Y99 E2.44491
G1 X150.13 Y98.986 E2.45312
G1 X150.418 Y99.067 E2.45946
G1 X150.69 Y99.247 E2.46637
G1 X150.935 Y99.564 E2.47484
G1 X151.03 Y99.983 E2.48393
G1 X150.969 Y100.331 E2.49141
G1 X150.827 Y100.546 E2.49687
G1 X150.444 Y100.836 E2.50703
G1 X150.124 Y100.928 E2.51408
G1 X149.842 Y100.646 F7800
;LAYER_CHANGE
;Z:0.44
;HEIGHT:0.12
G1 Z.44 F7800
G1 X149.933 Y100.068
;TYPE:Perimeter
;WIDTH:0.418445
G1 F600
G1 X149.886 Y99.869 E2.51808
G1 X149.999 Y99.712 E2.52187
G1 X150.117 Y99.717 E2.5242
G1 X150.255 Y99.833 E2.52772
G1 X150.297 Y100.035 E2.53176
;WIDTH:0.418272
G1 X150.226 Y100.199 E2.53527
G1 X150.116 Y100.233 E2.53752
G1 X149.978 Y100.108 E2.54116
G1 X149.531 Y100.208 F7800
;WIDTH:0.449999
G1 F600
G1 X149.476 Y99.972 E2.54628
G1 X149.507 Y99.692 E2.55225
G1 X149.627 Y99.508 E2.5569
G1 X149.881 Y99.311 E2.56369
G1 X150.134 Y99.301 E2.56907
G1 X150.431 Y99.417 E2.57581
G1 X150.602 Y99.616 E2.58137
G1 X150.695 Y99.881 E2.5873
G1 X150.699 Y100.104 E2.59203
G1 X150.674 Y100.25 E2.59516
G1 X150.513 Y100.512 E2.60167
G1 X150.272 Y100.616 E2.60722
G1 X150.029 Y100.633 E2.61238
G1 X149.717 Y100.466 E2.61987
G1 X149.566 Y100.257 E2.62533
G1 X149.137 Y100.387 F7800
;TYPE:External perimeter
G1 F600
G1 X149.051 Y100.018 E2.63335
G1 X149.077 Y99.672 E2.64069
G1 X149.223 Y99.315 E2.64887
G1 X149.372 Y99.161 E2.65339
G1 X149.612 Y98.974 E2.65982
G1 X149.979 Y98.851 E2.66803
G1 X150.349 Y98.902 E2.67593
G1 X150.555 Y99.005 E2.68081
G1 X150.868 Y99.241 E2.6891
G1 X151.058 Y99.546 E2.69671
G1 X151.151 Y99.984 E2.70619
G1 X151.078 Y100.402 E2.71517
G1 X150.885 Y100.717 E2.72298
G1 X150.698 Y100.916 E2.72876
G1 X150.456 Y101.001 E2.73418
G1 X150.151 Y101.064 E2.74078
G1 X149.802 Y101.018 E2.74823
G1 X149.422 Y100.782 E2.75771
G1 X149.172 Y100.436 E2.76674
G1 X149.359 Y100.08 F7800
M106 S255
;LAYER_CHANGE
;Z:0.56
;HEIGHT:0.12
G1 Z.56 F7800
G1 X150.132 Y99.918
;TYPE:Perimeter
;WIDTH:0.477359
G1 F600
G1 X150.248 Y99.982 E2.76972
G1 X150.294 Y100.166 E2.77401
G1 X150.252 Y100.303 E2.77723
G1 X150.146 Y100.377 E2.78014
G1 X150.016 Y100.384 E2.78306
G1 X149.865 Y100.266 E2.7874
G1 X149.815 Y100.116 E2.79095
G1 X149.897 Y99.982 E2.79449
G1 X150.074 Y99.934 E2.79862
G1 X150.322 Y99.509 F7800
;WIDTH:0.449999
G1 F600
G1 X150.598 Y99.709 E2.80584
G1 X150.677 Y99.886 E2.80993
G1 X150.732 Y100.188 E2.81642
G1 X150.632 Y100.535 E2.82408
G1 X150.347 Y100.771 E2.83191
G1 X150.043 Y100.842 E2.83851
G1 X149.737 Y100.741 E2.84533
G1 X149.537 Y100.556 E2.85108
G1 X149.386 Y100.289 E2.85758
G1 X149.374 Y100.063 E2.86238
G1 X149.509 Y99.745 E2.86968
G1 X149.769 Y99.556 E2.87649
G1 X150.012 Y99.488 E2.88184
G1 X150.262 Y99.505 E2.88714
G1 X150.351 Y99.082 F7800
;TYPE:External perimeter
G1 F600
G1 X150.683 Y99.21 E2.89468
G1 X150.979 Y99.508 E2.90358
G1 X151.164 Y100.022 E2.91515
G1 X151.147 Y100.374 E2.9226
G1 X151.082 Y100.546 E2.9265
G1 X150.889 Y100.91 E2.93521
G1 X150.689 Y101.049 E2.94036
G1 X150.406 Y101.199 E2.94714
G1 X150.015 Y101.272 E2.95557
G1 X149.647 Y101.181 E2.96358
G1 X149.386 Y101.026 E2.97
G1 X149.107 Y100.711 E2.97892
G1 X148.966 Y100.388 E2.98637
G1 X148.946 Y100.012 E2.99435
G1 X148.999 Y99.835 E2.99826
G1 X149.127 Y99.553 E3.00481
G1 X149.4 Y99.266 E3.01319
G1 X149.77 Y99.082 E3.02193
G1 X149.978 Y99.066 E3.02636
G1 X150.291 Y99.079 E3.03298
G1 X150.449 Y99.424 F7800
;LAYER_CHANGE
;Z:0.68
;HEIGHT:0.12
G1 Z.68 F7800
G1 X150.07 Y99.986
;TYPE:Perimeter
;WIDTH:0.474019
G1 F600
G1 X150.073 Y100.209 E3.03797
G1 X149.938 Y100.287 E3.04145
G1 X149.719 Y100.28 E3.04636
G1 X149.605 Y100.088 E3.05137
G1 X149.668 Y99.951 E3.05473
G1 X149.807 Y99.833 E3.05881
G1 X149.927 Y99.828 E3.0615
G1 X150.03 Y99.941 E3.06492
G1 X150.482 Y99.876 F7800
;WIDTH:0.449999
G1 F600
G1 X150.521 Y100.076 E3.06924
G1 X150.494 Y100.35 E3.07507
G1 X150.311 Y100.591 E3.08147
G1 X149.964 Y100.74 E3.08947
G1 X149.682 Y100.727 E3.09544
G1 X149.407 Y100.602 E3.10184
G1 X149.185 Y100.22 E3.11119
G1 X149.184 Y99.922 E3.11749
G1 X149.417 Y99.555 E3.1267
G1 X149.755 Y99.382 E3.13472
G1 X150.092 Y99.42 E3.1419
G1 X150.415 Y99.693 E3.15086
G1 X150.462 Y99.819 E3.15371
G1 X150.904 Y99.72 F7800
;TYPE:External perimeter
G1 F600
G1 X150.963 Y100.192 E3.16377
G1 X150.894 Y100.502 E3.17049
G1 X150.769 Y100.729 E3.17598
G1 X150.442 Y101.024 E3.18531
G1 X150.025 Y101.167 E3.19463
G1 X149.605 Y101.148 E3.20354
G1 X149.239 Y100.997 E3.21191
G1 X148.964 Y100.739 E3.2199
G1 X148.776 Y100.349 E3.22907
G1 X148.731 Y100.076 E3.23492
G1 X148.843 Y99.62 E3.24487
G1 X149.128 Y99.233 E3.25503
G1 X149.526 Y99 E3.26479
G1 X149.971 Y98.951 E3.27429
G1 X150.422 Y99.111 E3.28441
G1 X150.761 Y99.437 E3.29438
G1 X150.877 Y99.667 E3.29981
G1 X150.634 Y100.015 F7800
;LAYER_CHANGE
;Z:0.8
;HEIGHT:0.12
G1 Z.8 F7800
G1 X150.138 Y99.948
;TYPE:Perimeter
;WIDTH:0.46517
G1 F600
G1 X150.051 Y100.054 E3.30282
G1 X149.922 Y100.09 E3.30577
G1 X149.786 Y100.064 E3.30879
G1 X149.692 Y99.933 E3.31232
G1 X149.711 Y99.714 E3.31715
;WIDTH:0.464305
G1 X149.879 Y99.607 E3.32148
G1 X150.008 Y99.639 E3.32439
G1 X150.115 Y99.732 E3.3275
;WIDTH:0.46517
G1 X150.132 Y99.888 E3.33094
G1 X150.581 Y100.022 F7800
;WIDTH:0.449999
G1 F600
G1 X150.532 Y100.135 E3.33354
G1 X150.362 Y100.354 E3.3394
G1 X150.135 Y100.499 E3.34511
G1 X149.751 Y100.528 E3.35325
G1 X149.424 Y100.347 E3.36115
G1 X149.266 Y100.037 E3.36852
G1 X149.248 Y99.743 E3.37476
G1 X149.312 Y99.548 E3.3791
G1 X149.499 Y99.318 E3.38538
G1 X149.805 Y99.177 E3.39251
G1 X150 Y99.183 E3.39662
G1 X150.35 Y99.332 E3.40469
G1 X150.53 Y99.56 E3.41083
G1 X150.574 Y99.963 E3.41941
G1 X151.015 Y100.088 F7800
;TYPE:External perimeter
G1 F600
G1 X150.857 Y100.452 E3.42781
G1 X150.549 Y100.77 E3.43719
G1 X150.255 Y100.912 E3.4441
G1 X149.784 Y100.968 E3.45413
G1 X149.535 Y100.916 E3.45952
G1 X149.334 Y100.791 E3.46453
G1 X149.074 Y100.589 E3.4715
G1 X148.847 Y100.139 E3.48217
G1 X148.848 Y99.586 E3.49387
G1 X149.008 Y99.205 E3.50261
G1 X149.133 Y99.083 E3.5063
G1 X149.479 Y98.838 E3.51528
G1 X149.845 Y98.75 E3.52325
G1 X150.255 Y98.803 E3.53201
G1 X150.675 Y99.055 E3.54237
G1 X150.94 Y99.408 E3.55172
G1 X151.009 Y100.028 E3.56493
G1 X150.643 Y100.226 F7800
;LAYER_CHANGE
;Z:0.92
;HEIGHT:0.12
G1 Z.92 F7800
G1 X149.947 Y99.75
;TYPE:Perimeter
;WIDTH:0.461047
G1 F600
G1 X150.258 Y99.706 E3.57175
G1 X150.382 Y99.854 E3.57594
G1 X150.299 Y100.109 E3.58176
G1 X150.089 Y100.17 E3.58652
G1 X149.934 Y100.043 E3.59086
G1 X149.892 Y99.84 E3.59537
G1 X149.916 Y99.801 E3.59636
G1 X149.832 Y99.302 F7800
;WIDTH:0.449999
G1 F600
G1 X150.343 Y99.27 E3.6072
G1 X150.541 Y99.353 E3.61173
G1 X150.786 Y99.689 E3.62054
G1 X150.813 Y99.863 E3.62426
G1 X150.798 Y100.053 E3.6283
G1 X150.621 Y100.393 E3.63641
G1 X150.378 Y100.561 E3.64267
G1 X149.973 Y100.589 E3.65126
G1 X149.602 Y100.326 E3.66088
G1 X149.485 Y100.081 E3.66664
G1 X149.463 Y99.735 E3.67399
G1 X149.558 Y99.538 E3.67862
G1 X149.787 Y99.341 E3.685
G1 X149.553 Y98.976 F7800
;TYPE:External perimeter
G1 F600
G1 X149.751 Y98.882 E3.68964
G1 X150.416 Y98.84 E3.70374
G1 X150.646 Y98.937 E3.70902
G1 X150.876 Y99.085 E3.71482
G1 X151.12 Y99.423 E3.72365
G1 X151.247 Y99.753 E3.73113
G1 X151.215 Y100.162 E3.7398
G1 X151.085 Y100.444 E3.74639
G1 X150.886 Y100.736 E3.75386
G1 X150.505 Y100.971 E3.76333
G1 X150.303 Y101.001 E3.76764
G1 X149.954 Y101.016 E3.77504
G1 X149.65 Y100.914 E3.78183
G1 X149.274 Y100.606 E3.79212
G1 X149.181 Y100.447 E3.79602
G1 X149.074 Y100.188 E3.80196
G1 X149.038 Y99.833 E3.8095
G1 X149.084 Y99.531 E3.81596
G1 X149.294 Y99.176 E3.82469
G1 X149.505 Y99.013 E3.83035
G1 X149.749 Y99.074 F7800
;LAYER_CHANGE
;Z:1.04
;HEIGHT:0.12
G1 Z1.04 F7800
G1 X150.216 Y99.91
;TYPE:Perimeter
;WIDTH:0.47513
G1 F600
G1 X150.239 Y99.913 E3.83088
G1 X150.34 Y100.128 E3.83621
G1 X150.328 Y100.236 E3.83865
G1 X150.122 Y100.373 E3.84419
G1 X149.937 Y100.315 E3.84853
G1 X149.847 Y100.117 E3.8534
G1 X149.965 Y99.941 E3.85815
G1 X150.106 Y99.898 E3.86145
G1 X150.156 Y99.904 E3.86259
G1 X150.246 Y99.453 F7800
;WIDTH:0.449999
G1 F600
G1 X150.523 Y99.579 E3.86904
G1 X150.736 Y99.892 E3.87704
G1 X150.777 Y100.123 E3.88202
G1 X150.713 Y100.456 E3.88919
G1 X150.502 Y100.66 E3.89541
G1 X150.193 Y100.813 E3.9027
G1 X149.868 Y100.759 E3.90968
G1 X149.64 Y100.635 E3.91516
G1 X149.438 Y100.336 E3.92282
G1 X149.411 Y100.152 E3.92676
G1 X149.442 Y99.93 E3.93148
G1 X149.696 Y99.582 E3.94061
G1 X149.901 Y99.504 E3.94525
G1 X150.186 Y99.462 E3.95137
G1 X150.314 Y99.028 F7800
;TYPE:External perimeter
G1 F600
G1 X150.628 Y99.136 E3.9584
G1 X150.942 Y99.396 E3.96704
G1 X151.134 Y99.733 E3.97525
G1 X151.201 Y100.095 E3.98305
G1 X151.161 Y100.474 E3.99111
G1 X151.036 Y100.734 E3.99721
G1 X150.639 Y101.1 E4.00864
G1 X150.274 Y101.235 E4.01688
G1 X149.933 Y101.214 E4.0241
G1 X149.521 Y101.072 E4.03332
G1 X149.244 Y100.846 E4.04089
G1 X149.03 Y100.478 E4.04991
G1 X148.995 Y100.24 E4.05499
G1 X148.995 Y99.952 E4.06109
G1 X149.117 Y99.617 E4.06863
G1 X149.478 Y99.213 E4.08011
G1 X149.99 Y99.033 E4.09159
G1 X150.254 Y99.029 E4.09718
G1 X150.436 Y99.337 F7800
;LAYER_CHANGE
;Z:1.16
;HEIGHT:0.12
G1 Z1.16 F7800
G1 X150.058 Y99.95
;TYPE:Perimeter
;WIDTH:0.477871
G1 F600
G1 X150.113 Y100.171 E4.10233
G1 X149.983 Y100.324 E4.10685
G1 X149.809 Y100.34 E4.1108
G1 X149.634 Y100.166 E4.11636
G1 X149.725 Y99.907 E4.12254
G1 X149.86 Y99.858 E4.12579
G1 X150.003 Y99.925 E4.12936
G1 X150.375 Y99.649 F7800
;WIDTH:0.449999
G1 F600
G1 X150.399 Y99.667 E4.12998
G1 X150.521 Y99.953 E4.13657
G1 X150.551 Y100.2 E4.14183
G1 X150.486 Y100.402 E4.14631
G1 X150.32 Y100.614 E4.15203
G1 X150.083 Y100.758 E4.15788
G1 X149.788 Y100.784 E4.16416
G1 X149.557 Y100.699 E4.16936
G1 X149.355 Y100.526 E4.17501
G1 X149.202 Y100.267 E4.18136
G1 X149.2 Y100.043 E4.18611
G1 X149.329 Y99.718 E4.1935
G1 X149.459 Y99.558 E4.19788
G1 X149.806 Y99.412 E4.20584
G1 X150.155 Y99.483 E4.21336
G1 X150.327 Y99.613 E4.21794
G1 X150.633 Y99.307 F7800
;TYPE:External perimeter
G1 F600
G1 X150.86 Y99.602 E4.22581
G1 X150.994 Y100.056 E4.23584
G1 X150.951 Y100.439 E4.244
G1 X150.741 Y100.815 E4.25311
G1 X150.438 Y101.067 E4.26145
G1 X150.209 Y101.166 E4.26673
G1 X149.877 Y101.209 E4.27382
G1 X149.474 Y101.15 E4.28245
G1 X149.134 Y100.932 E4.29098
G1 X148.839 Y100.499 E4.30208
G1 X148.774 Y100.22 E4.30813
G1 X148.802 Y99.837 E4.31627
G1 X149.005 Y99.413 E4.32621
G1 X149.2 Y99.222 E4.33201
G1 X149.443 Y99.09 E4.33784
G1 X149.831 Y98.987 E4.34635
G1 X150.32 Y99.088 E4.35692
G1 X150.584 Y99.273 E4.36373
G1 X150.555 Y99.671 F7800
;LAYER_CHANGE
;Z:1.28
;HEIGHT:0.12
G1 Z1.28 F7800
G1 X150.134 Y99.853
;TYPE:Perimeter
;WIDTH:0.480712
G1 F600
G1 X150.086 Y100.014 E4.36755
G1 X149.935 Y100.111 E4.37162
G1 X149.78 Y100.115 E4.37514
G1 X149.675 Y99.966 E4.37927
G1 X149.668 Y99.785 E4.38338
G1 X149.832 Y99.652 E4.38817
G1 X150.046 Y99.701 E4.39317
G1 X150.104 Y99.801 E4.3958
G1 X149.887 Y100.578 F7800
;WIDTH:0.449999
G1 F600
G1 X149.561 Y100.497 E4.4029
G1 X149.346 Y100.306 E4.40901
G1 X149.216 Y99.975 E4.41652
G1 X149.247 Y99.619 E4.42409
G1 X149.394 Y99.435 E4.42908
G1 X149.596 Y99.278 E4.43449
G1 X149.869 Y99.2 E4.44049
G1 X150.271 Y99.316 E4.44936
G1 X150.447 Y99.479 E4.45442
G1 X150.58 Y99.805 E4.46188
G1 X150.576 Y99.886 E4.46359
G1 X150.462 Y100.246 E4.47159
G1 X150.27 Y100.445 E4.47743
G1 X149.944 Y100.558 E4.48475
G1 X149.878 Y101.007 F7800
;TYPE:External perimeter
G1 F600
G1 X149.516 Y100.947 E4.49252
G1 X149.295 Y100.84 E4.49772
G1 X148.985 Y100.536 E4.50692
G1 X148.866 Y100.273 E4.51304
G1 X148.778 Y99.91 E4.52093
G1 X148.821 Y99.602 E4.52753
G1 X148.892 Y99.383 E4.53239
G1 X149.238 Y98.982 E4.5436
G1 X149.6 Y98.803 E4.55214
G1 X150.089 Y98.793 E4.5625
G1 X150.475 Y98.94 E4.57124
G1 X150.806 Y99.243 E4.58074
G1 X150.892 Y99.433 E4.58514
G1 X151.001 Y99.761 E4.59247
G1 X150.968 Y100.089 E4.59944
G1 X150.825 Y100.47 E4.60806
G1 X150.585 Y100.737 E4.61566
G1 X150.213 Y100.932 E4.62455
G1 X149.937 Y100.994 E4.63053
G1 X149.691 Y100.691 F7800
;LAYER_CHANGE
;Z:1.4
