; generated by PrusaSlicer 2.5.0+win64 on 2022-12-21 at 20:33:38 UTC

; 

; external perimeters extrusion width = 0.45mm
; perimeters extrusion width = 0.45mm
; infill extrusion width = 0.45mm
; solid infill extrusion width = 0.45mm
; top infill extrusion width = 0.40mm
; first layer extrusion width = 0.42mm

M107
M190 S110 ; set bed temperature and wait for it to be reached
M104 S230 ; set temperature
;TYPE:Custom
G28 ; home all axes
G1 Z5 F5000 ; lift nozzle
M109 S230 ; set temperature and wait for it to be reached
G21 ; set units to millimeters
G90 ; use absolute coordinates
M82 ; use absolute distances for extrusion
G92 E0
; Filament gcode
M107
;LAYER_CHANGE
;Z:0.2
;HEIGHT:0.2
G1 Z.2 F7800
G1 E-2 F2400
G92 E0
G1 X143.682 Y96.482 F7800
G1 E2 F2400
;TYPE:Skirt/Brim
;WIDTH:0.42
G1 F890
G1 X144.477 Y95.321 E2.04411
G1 X145.442 Y94.386 E2.08626
G1 X146.251 Y93.808 E2.11742
G1 X147.143 Y93.354 E2.14879
G1 X148.316 Y92.961 E2.18757
G1 X149.78 Y92.767 E2.23388
G1 X150.921 Y92.821 E2.2697
G1 X152.21 Y93.116 E2.31116
G1 X153.429 Y93.662 E2.35303
G1 X154.572 Y94.458 E2.39671
G1 X155.726 Y95.66 E2.44896
G1 X156.481 Y96.904 E2.49458
G1 X156.904 Y98.017 E2.5319
G1 X157.185 Y99.478 E2.57856
G1 X157.188 Y100.735 E2.61797
G1 X157.046 Y101.652 E2.64707
G1 X156.773 Y102.551 E2.67651
G1 X156.298 Y103.565 E2.71163
G1 X155.491 Y104.717 E2.75574
G1 X154.356 Y105.779 E2.80446
G1 X153.502 Y106.334 E2.83641
G1 X152.797 Y106.677 E2.861
G1 X151.734 Y107.028 E2.89609
G1 X150.579 Y107.215 E2.93278
G1 X149.353 Y107.209 E2.97122
G1 X148.115 Y106.989 E3.01063
G1 X146.547 Y106.361 E3.06359
G1 X145.322 Y105.524 E3.1101
G1 X144.487 Y104.691 E3.1471
G1 X143.719 Y103.597 E3.18901
G1 X143.083 Y102.136 E3.23895
G1 X142.787 Y100.608 E3.28776
G1 X142.788 Y99.396 E3.32577
G1 X142.995 Y98.186 E3.36426
G1 X143.294 Y97.275 E3.39432
G1 X143.656 Y96.536 E3.42012
G1 E1.42012 F2400
G92 E0
G1 X149.977 Y99.753 F7800
G1 E2 F2400
;TYPE:Perimeter
;WIDTH:0.459482
G1 F890
G1 X150.106 Y99.847 E2.00551
G1 X150.214 Y100.07 E2.01411
;WIDTH:0.45926
G1 X150.15 Y100.191 E2.01884
G1 X149.971 Y100.241 E2.02528
G1 X149.828 Y100.17 E2.03081
;WIDTH:0.459482
G1 X149.759 Y100.006 E2.03697
G1 X149.801 Y99.852 E2.04251
G1 X149.925 Y99.782 E2.04742
G1 X150.619 Y100.178 F7800
;TYPE:External perimeter
;WIDTH:0.419999
G1 F890
G1 X150.56 Y100.3 E2.05166
G1 X150.416 Y100.485 E2.05901
G1 X150.159 Y100.628 E2.06824
G1 X149.906 Y100.641 E2.07619
G1 X149.634 Y100.534 E2.08536
G1 X149.47 Y100.374 E2.09254
G1 X149.366 Y100.134 E2.10076
G1 X149.358 Y99.9 E2.1081
G1 X149.434 Y99.695 E2.11495
G1 X149.653 Y99.453 E2.12518
G1 X149.964 Y99.356 E2.13541
G1 X150.242 Y99.432 E2.14445
G1 X150.481 Y99.653 E2.15464
G1 X150.61 Y100.043 E2.16753
G1 X150.615 Y100.118 E2.16988
G1 X150.49 Y100.219 F7800
;LAYER_CHANGE
;Z:0.32
;HEIGHT:0.12
G1 Z.32 F7800
G1 X149.776 Y100.006
;TYPE:Perimeter
;WIDTH:0.479815
G1 F600
G1 X149.75 Y99.981 E2.17071
G1 X149.753 Y99.764 E2.17562
G1 X149.856 Y99.688 E2.17854
G1 X150.126 Y99.677 E2.18464
;WIDTH:0.479582
G1 X150.297 Y99.832 E2.18987
G1 X150.243 Y100.044 E2.19483
G1 X150.084 Y100.108 E2.19871
;WIDTH:0.479815
G1 X149.865 Y100.088 E2.20368
G1 X149.82 Y100.047 E2.20507
G1 X149.463 Y100.346 F7800
;TYPE:External perimeter
;WIDTH:0.449999
G1 F600
G1 X149.335 Y100.15 E2.21002
G1 X149.279 Y99.867 E2.21612
G1 X149.309 Y99.735 E2.21898
G1 X149.403 Y99.495 E2.22445
G1 X149.693 Y99.271 E2.23221
G1 X150.033 Y99.211 E2.2395
G1 X150.295 Y99.263 E2.24516
G1 X150.433 Y99.354 E2.24865
G1 X150.622 Y99.526 E2.25408
G1 X150.727 Y99.744 E2.25919
G1 X150.696 Y100.142 E2.26763
G1 X150.593 Y100.311 E2.27184
G1 X150.364 Y100.499 E2.2781
G1 X149.985 Y100.576 E2.28628
G1 X149.783 Y100.521 E2.29071
G1 X149.516 Y100.375 E2.29716
G1 X149.527 Y100.121 F7800
;LAYER_CHANGE
;Z:0.44
;HEIGHT:0.12
G1 Z.44 F7800
G1 X150.126 Y99.763
;TYPE:Perimeter
;WIDTH:0.522367
G1 F600
G1 X150.322 Y99.846 E2.30243
G1 X150.403 Y100.028 E2.30738
G1 X150.304 Y100.23 E2.31296
G1 X150.098 Y100.291 E2.3183
G1 X149.943 Y100.213 E2.3226
G1 X149.888 Y100.015 E2.32768
G1 X149.98 Y99.825 E2.33292
G1 X150.071 Y99.786 E2.33537
G1 X150.148 Y99.294 F7800
;TYPE:External perimeter
;WIDTH:0.449999
G1 F600
G1 X150.442 Y99.366 E2.34178
G1 X150.661 Y99.522 E2.34747
G1 X150.837 Y99.795 E2.35434
G1 X150.859 Y100.094 E2.36068
G1 X150.838 Y100.24 E2.3638
G1 X150.693 Y100.515 E2.3704
G1 X150.579 Y100.6 E2.3734
G1 X150.378 Y100.699 E2.37815
G1 X150.076 Y100.751 E2.38463
G1 X149.8 Y100.685 E2.39064
G1 X149.591 Y100.522 E2.39624
G1 X149.467 Y100.314 E2.40137
G1 X149.42 Y100.005 E2.40799
G1 X149.465 Y99.777 E2.41289
G1 X149.643 Y99.495 E2.41995
G1 X149.89 Y99.332 E2.4262
G1 X150.089 Y99.303 E2.43046
G1 X150.291 Y99.562 F7800
M106 S255
;LAYER_CHANGE
;Z:0.56
;HEIGHT:0.12
G1 Z.56 F7800
G1 X149.829 Y99.897
;TYPE:Perimeter
;WIDTH:0.521045
G1 F600
G1 X150.035 Y99.908 E2.43556
G1 X150.186 Y100.005 E2.43999
G1 X150.221 Y100.187 E2.44455
G1 X150.062 Y100.374 E2.45061
G1 X149.843 Y100.373 E2.45603
G1 X149.74 Y100.268 E2.45966
G1 X149.698 Y100.071 E2.46463
G1 X149.793 Y99.945 E2.46856
G1 X149.6 Y99.49 F7800
;TYPE:External perimeter
;WIDTH:0.449999
G1 F600
G1 X149.886 Y99.428 E2.47476
G1 X150.156 Y99.464 E2.48051
G1 X150.406 Y99.582 E2.48637
G1 X150.567 Y99.749 E2.49128
G1 X150.667 Y99.984 E2.49668
G1 X150.679 Y100.233 E2.50197
G1 X150.661 Y100.344 E2.50434
G1 X150.506 Y100.611 E2.51088
G1 X150.271 Y100.795 E2.5172
G1 X149.984 Y100.869 E2.52347
G1 X149.675 Y100.808 E2.53013
G1 X149.405 Y100.618 E2.53713
G1 X149.239 Y100.257 E2.54555
G1 X149.239 Y100.028 E2.55039
G1 X149.386 Y99.667 E2.55863
G1 X149.554 Y99.528 E2.56323
G1 X149.845 Y99.65 F7800
;LAYER_CHANGE
;Z:0.68
;HEIGHT:0.12
G1 Z.68 F7800
G1 X149.939 Y100.2
;TYPE:Perimeter
;WIDTH:0.521965
G1 F600
G1 X149.787 Y100.196 E2.56701
G1 X149.624 Y100.026 E2.57283
G1 X149.628 Y99.841 E2.57742
G1 X149.78 Y99.7 E2.58255
G1 X149.932 Y99.696 E2.58632
G1 X150.083 Y99.78 E2.59057
G1 X150.115 Y99.944 E2.59472
G1 X150.099 Y100.035 E2.59699
G1 X149.981 Y100.157 E2.6012
G1 X150.105 Y100.642 F7800
;TYPE:External perimeter
;WIDTH:0.449999
G1 F600
G1 X149.829 Y100.68 E2.6071
G1 X149.593 Y100.622 E2.61224
G1 X149.347 Y100.449 E2.61861
G1 X149.188 Y100.198 E2.62491
G1 X149.135 Y99.913 E2.63103
G1 X149.203 Y99.648 E2.63684
G1 X149.374 Y99.396 E2.64328
G1 X149.636 Y99.254 E2.64958
G1 X149.916 Y99.218 E2.65554
G1 X150.083 Y99.26 E2.65919
G1 X150.313 Y99.368 E2.66457
G1 X150.533 Y99.621 E2.67167
G1 X150.564 Y99.769 E2.67487
G1 X150.568 Y100.024 E2.68027
G1 X150.534 Y100.218 E2.68444
G1 X150.343 Y100.485 E2.69139
G1 X150.155 Y100.609 E2.69615
G1 X149.892 Y100.463 F7800
;LAYER_CHANGE
;Z:0.8
;HEIGHT:0.12
G1 Z.8 F7800
G1 X150.136 Y100.133
;TYPE:Perimeter
;WIDTH:0.518922
G1 F600
G1 X149.942 Y100.099 E2.701
G1 X149.801 Y99.877 E2.70747
G1 X149.885 Y99.695 E2.71241
G1 X150.085 Y99.611 E2.71773
G1 X150.281 Y99.716 E2.72321
G1 X150.32 Y99.859 E2.72686
G1 X150.281 Y100.041 E2.73143
G1 X150.187 Y100.101 E2.73417
G1 X150.239 Y100.59 F7800
;TYPE:External perimeter
;WIDTH:0.449999
G1 F600
G1 X149.912 Y100.571 E2.7411
G1 X149.635 Y100.45 E2.7475
G1 X149.392 Y100.146 E2.75572
G1 X149.331 Y99.88 E2.76152
G1 X149.394 Y99.591 E2.76777
G1 X149.567 Y99.352 E2.77402
G1 X149.838 Y99.185 E2.78075
G1 X150.124 Y99.14 E2.78687
G1 X150.428 Y99.242 E2.79365
G1 X150.66 Y99.435 E2.80006
G1 X150.781 Y99.723 E2.80666
G1 X150.775 Y100.052 E2.81362
G1 X150.702 Y100.222 E2.81755
G1 X150.526 Y100.459 E2.8238
G1 X150.293 Y100.565 E2.82921
G1 X150.026 Y100.342 F7800
;LAYER_CHANGE
;Z:0.92
;HEIGHT:0.12
G1 Z.92 F7800
G1 X149.871 Y100.19
;TYPE:Perimeter
;WIDTH:0.52229
G1 F600
G1 X149.894 Y99.965 E2.83482
G1 X150.041 Y99.827 E2.8398
G1 X150.216 Y99.836 E2.84414
G1 X150.356 Y99.99 E2.84931
G1 X150.37 Y100.139 E2.853
G1 X150.271 Y100.304 E2.85776
G1 X150.179 Y100.327 E2.86011
G1 X150.001 Y100.318 E2.86453
G1 X149.914 Y100.232 E2.86756
G1 X149.443 Y100.387 F7800
;TYPE:External perimeter
;WIDTH:0.449999
G1 F600
G1 X149.385 Y100.125 E2.87325
G1 X149.463 Y99.782 E2.8807
G1 X149.585 Y99.595 E2.88542
G1 X149.818 Y99.418 E2.89161
G1 X150.017 Y99.355 E2.89602
G1 X150.398 Y99.403 E2.90415
G1 X150.623 Y99.557 E2.90993
G1 X150.789 Y99.812 E2.91637
G1 X150.849 Y100.105 E2.9227
G1 X150.792 Y100.363 E2.92829
G1 X150.649 Y100.567 E2.93358
G1 X150.471 Y100.731 E2.93869
G1 X150.151 Y100.807 E2.94566
G1 X149.842 Y100.759 E2.95228
G1 X149.627 Y100.63 E2.95758
G1 X149.479 Y100.435 E2.96276
G1 X149.601 Y100.17 F7800
;LAYER_CHANGE
;Z:1.04
;HEIGHT:0.12
G1 Z1.04 F7800
G1 X149.855 Y99.861
;TYPE:Perimeter
;WIDTH:0.52332
G1 F600
G1 X149.894 Y99.845 E2.9638
G1 X150.094 Y99.943 E2.96933
G1 X150.17 Y100.13 E2.97434
G1 X150.082 Y100.298 E2.97906
G1 X149.858 Y100.368 E2.98489
G1 X149.703 Y100.28 E2.98932
G1 X149.645 Y100.12 E2.99355
G1 X149.727 Y99.916 E2.99902
G1 X149.8 Y99.885 E3.00098
G1 X149.664 Y99.41 F7800
;TYPE:External perimeter
;WIDTH:0.449999
G1 F600
G1 X149.933 Y99.375 E3.00673
G1 X150.209 Y99.458 E3.01282
G1 X150.438 Y99.622 E3.01877
G1 X150.512 Y99.743 E3.02178
G1 X150.612 Y99.986 E3.02734
G1 X150.643 Y100.142 E3.03071
G1 X150.572 Y100.42 E3.03677
G1 X150.392 Y100.651 E3.04298
G1 X150.158 Y100.789 E3.04874
G1 X149.736 Y100.813 E3.05768
G1 X149.474 Y100.697 E3.06375
G1 X149.219 Y100.381 E3.07234
G1 X149.177 Y100.11 E3.07815
G1 X149.23 Y99.842 E3.08393
G1 X149.392 Y99.583 E3.09041
G1 X149.613 Y99.442 E3.09595
G1 X149.871 Y99.585 F7800
;LAYER_CHANGE
;Z:1.16
;HEIGHT:0.12
G1 Z1.16 F7800
G1 X149.815 Y100.145
;TYPE:Perimeter
;WIDTH:0.520253
G1 F600
G1 X149.68 Y100.028 E3.10037
G1 X149.64 Y99.836 E3.1052
G1 X149.756 Y99.691 E3.10978
G1 X149.892 Y99.629 E3.11347
G1 X150.066 Y99.7 E3.11809
G1 X150.157 Y99.826 E3.12193
G1 X150.169 Y99.882 E3.12335
G1 X150.072 Y100.088 E3.12897
G1 X149.991 Y100.122 E3.13114
G1 X149.875 Y100.137 E3.13404
G1 X149.649 Y100.588 F7800
;TYPE:External perimeter
;WIDTH:0.449999
G1 F600
G1 X149.454 Y100.479 E3.13876
G1 X149.349 Y100.349 E3.1423
G1 X149.23 Y100.126 E3.14767
G1 X149.174 Y99.82 E3.15424
G1 X149.254 Y99.553 E3.16014
G1 X149.568 Y99.242 E3.16949
G1 X149.817 Y99.176 E3.17495
G1 X150.156 Y99.213 E3.18217
G1 X150.425 Y99.384 E3.18892
G1 X150.578 Y99.596 E3.19445
G1 X150.641 Y99.889 E3.20078
G1 X150.574 Y100.159 E3.20667
G1 X150.35 Y100.456 E3.21454
G1 X149.953 Y100.624 E3.22367
G1 X149.709 Y100.595 E3.22888
G1 X149.595 Y100.372 F7800
;LAYER_CHANGE
;Z:1.28
;HEIGHT:0.12
G1 Z1.28 F7800
G1 X149.876 Y99.794
;TYPE:Perimeter
;WIDTH:0.519794
G1 F600
G1 X150.008 Y99.675 E3.23326
G1 X150.168 Y99.668 E3.2372
G1 X150.32 Y99.757 E3.24156
G1 X150.37 Y99.964 E3.24681
G1 X150.271 Y100.134 E3.25165
G1 X150.107 Y100.184 E3.25588
G1 X149.906 Y100.061 E3.26171
G1 X149.877 Y99.967 E3.26412
G1 X149.876 Y99.854 E3.26691
G1 X149.452 Y99.589 F7800
;TYPE:External perimeter
;WIDTH:0.449999
G1 F600
G1 X149.627 Y99.366 E3.27291
G1 X149.851 Y99.235 E3.27839
G1 X150.138 Y99.19 E3.28454
G1 X150.458 Y99.263 E3.2915
G1 X150.697 Y99.479 E3.29831
G1 X150.84 Y99.787 E3.3055
G1 X150.824 Y100.072 E3.31154
G1 X150.711 Y100.332 E3.31755
G1 X150.48 Y100.548 E3.32423
G1 X150.101 Y100.653 E3.33257
G1 X149.872 Y100.603 E3.33752
G1 X149.512 Y100.301 E3.34747
G1 X149.383 Y99.877 E3.35685
G1 X149.438 Y99.648 E3.36184
G1 X149.734 Y99.559 F7800
;LAYER_CHANGE
;Z:1.4
;HEIGHT:0.12
G1 Z1.4 F7800
G1 X150.193 Y99.884
;TYPE:Perimeter
;WIDTH:0.524512
G1 F600
G1 X150.282 Y99.972 E3.36496
G1 X150.324 Y100.169 E3.36999
G1 X150.313 Y100.238 E3.37173
G1 X150.155 Y100.364 E3.37673
G1 X149.991 Y100.368 E3.38084
G1 X149.825 Y100.212 E3.38649
G1 X149.829 Y100.037 E3.39085
G1 X149.981 Y99.891 E3.39609
G1 X150.133 Y99.886 E3.39987
G1 X150.371 Y99.447 F7800
;TYPE:External perimeter
;WIDTH:0.449999
G1 F600
G1 X150.584 Y99.591 E3.40532
G1 X150.739 Y99.827 E3.41129
G1 X150.771 Y99.979 E3.41457
G1 X150.771 Y100.296 E3.4213
G1 X150.666 Y100.561 E3.42732
G1 X150.428 Y100.758 E3.43385
G1 X150.138 Y100.857 E3.44035
G1 X149.832 Y100.81 E3.44691
G1 X149.589 Y100.666 E3.45289
G1 X149.398 Y100.412 E3.45961
G1 X149.334 Y100.141 E3.46551
G1 X149.4 Y99.841 E3.472
G1 X149.576 Y99.605 E3.47823
G1 X149.801 Y99.456 E3.48395
G1 X150.096 Y99.396 E3.49031
G1 X150.312 Y99.436 E3.49497
G1 X150.405 Y99.702 F7800
;LAYER_CHANGE
;Z:1.52
;HEIGHT:0.12
G1 Z1.52 F7800
G1 X149.98 Y99.842
;TYPE:Perimeter
;WIDTH:0.521374
G1 F600
G1 X150.029 Y99.868 E3.49633
G1 X150.121 Y100.043 E3.50122
G1 X150.127 Y100.092 E3.50245
G1 X150.074 Y100.228 E3.50605
G1 X149.954 Y100.302 E3.50955
G1 X149.72 Y100.281 E3.51534
G1 X149.634 Y100.168 E3.51887
G1 X149.627 Y100 E3.52301
G1 X149.727 Y99.839 E3.52771
G1 X149.885 Y99.792 E3.53178
G1 X149.927 Y99.814 E3.53295
G1 X150.208 Y99.41 F7800
;TYPE:External perimeter
;WIDTH:0.449999
G1 F600
G1 X150.337 Y99.526 E3.53662
G1 X150.498 Y99.74 E3.5423
G1 X150.577 Y99.986 E3.54777
G1 X150.594 Y100.12 E3.55064
G1 X150.524 Y100.4 E3.55674
G1 X150.353 Y100.617 E3.56258
G1 X150.143 Y100.74 E3.56774
G1 X149.842 Y100.783 E3.57417
G1 X149.613 Y100.728 E3.57915
G1 X149.38 Y100.611 E3.58469
G1 X149.205 Y100.355 E3.59123
G1 X149.134 Y100.044 E3.59798
G1 X149.234 Y99.712 E3.60533
G1 X149.431 Y99.476 E3.61184
G1 X149.649 Y99.359 E3.61709
G1 X149.925 Y99.323 E3.62297
G1 X150.15 Y99.392 E3.62795
G1 X150.208 Y99.583 F7800
;LAYER_CHANGE
;Z:1.64
;HEIGHT:0.12
G1 Z1.64 F7800
G1 X149.749 Y100.039
;TYPE:Perimeter
;WIDTH:0.522945
G1 F600
G1 X149.696 Y99.846 E3.63292
G1 X149.768 Y99.675 E3.63751
G1 X149.973 Y99.603 E3.64292
G1 X150.151 Y99.701 E3.64796
G1 X150.218 Y99.899 E3.65312
G1 X150.107 Y100.062 E3.65803
G1 X149.892 Y100.113 E3.66349
G1 X149.802 Y100.067 E3.66601
G1 X149.557 Y100.488 F7800
;TYPE:External perimeter
;WIDTH:0.449999
G1 F600
G1 X149.373 Y100.319 E3.6713
G1 X149.253 Y100.07 E3.67714
G1 X149.23 Y99.802 E3.68284
G1 X149.275 Y99.64 E3.68639
G1 X149.444 Y99.333 E3.69382
G1 X149.675 Y99.192 E3.69954
G1 X149.989 Y99.131 E3.70633
G1 X150.261 Y99.203 E3.71227
G1 X150.507 Y99.395 E3.71889
G1 X150.661 Y99.668 E3.72551
G1 X150.686 Y99.967 E3.73187
G1 X150.572 Y100.257 E3.73845
G1 X150.368 Y100.449 E3.7444
G1 X150.113 Y100.567 E3.75035
G1 X149.825 Y100.577 E3.75645
G1 X149.614 Y100.507 E3.76115
G1 X149.561 Y100.238 F7800
;LAYER_CHANGE
;Z:1.76
;HEIGHT:0.12
G1 Z1.76 F7800
G1 X150.038 Y100.221
;TYPE:Perimeter
;WIDTH:0.516808
G1 F600
G1 X149.9 Y100.031 E3.7669
G1 X149.915 Y99.809 E3.77235
G1 X150.114 Y99.707 E3.77782
G1 X150.339 Y99.794 E3.78374
G1 X150.388 Y99.926 E3.78719
G1 X150.378 Y100.078 E3.79091
G1 X150.261 Y100.206 E3.79518
G1 X150.098 Y100.217 E3.79919
G1 X149.843 Y100.646 F7800
;TYPE:External perimeter
;WIDTH:0.449999
G1 F600
G1 X149.633 Y100.491 E3.80472
G1 X149.445 Y100.153 E3.81289
G1 X149.438 Y99.789 E3.8206
G1 X149.541 Y99.545 E3.82622
G1 X149.875 Y99.283 E3.8352
G1 X150.127 Y99.242 E3.8406
G1 X150.452 Y99.313 E3.84765
G1 X150.693 Y99.484 E3.8539
G1 X150.834 Y99.753 E3.86033
G1 X150.861 Y100.112 E3.86796
G1 X150.799 Y100.258 E3.87132
G1 X150.684 Y100.437 E3.87582
G1 X150.427 Y100.64 E3.88276
G1 X150.098 Y100.704 E3.88985
G1 X149.901 Y100.66 E3.89413
G1 X149.816 Y100.386 F7800
;LAYER_CHANGE
;Z:1.88
;HEIGHT:0.12
G1 Z1.88 F7800
G1 X150.276 Y100.116
;TYPE:Perimeter
;WIDTH:0.519322
G1 F600
G1 X150.279 Y100.154 E3.89508
G1 X150.174 Y100.35 E3.90055
G1 X149.961 Y100.403 E3.90595
G1 X149.827 Y100.317 E3.90988
G1 X149.758 Y100.126 E3.91487
G1 X149.802 Y99.983 E3.91858
G1 X149.966 Y99.9 E3.92309
G1 X150.206 Y99.948 E3.92911
G1 X150.253 Y100.061 E3.93211
G1 X150.734 Y100.078 F7800
;TYPE:External perimeter
;WIDTH:0.449999
G1 F600
G1 X150.744 Y100.2 E3.93471
G1 X150.67 Y100.456 E3.94034
G1 X150.475 Y100.713 E3.94719
G1 X150.21 Y100.845 E3.95344
G1 X149.995 Y100.861 E3.95801
G1 X149.722 Y100.817 E3.96387
G1 X149.472 Y100.621 E3.97057
G1 X149.316 Y100.344 E3.97731
G1 X149.288 Y100.028 E3.98403
G1 X149.377 Y99.773 E3.98975
G1 X149.534 Y99.592 E3.99482
G1 X149.784 Y99.462 E4.00079
G1 X150.052 Y99.425 E4.00652
G1 X150.5 Y99.591 E4.01663
G1 X150.722 Y99.938 E4.02536
G1 X150.729 Y100.018 E4.02705
G1 X150.642 Y100.159 F7800
;LAYER_CHANGE
;Z:2
;HEIGHT:0.12
G1 Z2 F7800
G1 X150.047 Y100.172
;TYPE:Perimeter
;WIDTH:0.519189
G1 F600
G1 X149.958 Y100.251 E4.02999
